!!!!SEGMENT: pl-sa--90-a-ii-30--001_brixi-frantisek-xaver--missa-in-d-kyrie.krn
!!!cenid: 17xx:596
!!!COM: Brixi, František Xaver
!!!COM-rismid: pe30000491
!!!CDT: 1732/01/02-1771/10/14
!!!CNT: Czech
!!!OPR: Missa in D
!!!OTL: Kyrie
!!!OMV: 001
!!!PDT:
!!!AGN: Sacred; Mass
!!!SMS-siglum: PL-SA
!!!SMS-shelfmark: 90/A II 30
!!!SMS-shelfwork: 001-001 M
!!!SMS-variant: Violino 1mo.: 90/A II 30:20, Violino 2do.: 90/A II 30:36, Cornu 1mo In D.: 90/A II 30:48
!!!SMS-altvar: Violino 1mo.: 90/A II 30:28-29, Violino 2do.: 90/A II 30:42, Cornu 1mo In D.: 90/A II 30:50
!!!NIFC-rismid: 1001072256
!!!URL-scan: http://bc.bdsandomierz.pl/dlibra/publication/1375/edition/1343/content
!!!ONB-nifc: UWAGA: części Mszy: Kyrie, Gloria, Credo, Sanctus, Agnus Dei
**kern	**fba	**dynam	**kern	**dynam	**kern	**dynam	**kern	**text	**kern	**text	**kern	**text	**kern	**text	**kern	**kern
*part9	*	*part9	*part8	*part8	*part7	*part7	*part6	*part6	*part5	*part5	*part4	*part4	*part3	*part3	*part2	*part1
*	*	*	*group3	*	*group3	*	*group2	*	*group2	*	*group2	*	*group2	*	*group1	*group1
*staff9	*	*	*staff8	*	*staff7	*	*staff6	*staff6	*staff5	*staff5	*staff4	*staff4	*staff3	*staff3	*staff2	*staff1
*Iempty	*	*	*Ivioln	*	*Ivioln	*	*Iempty	*	*Itenor	*	*Ialto	*	*Ivox	*	*Iempty	*Iempty
*I"Fundamento	*	*	*I"Violino 2do.	*	*I"Violino 1mo.	*	*I"Baſso	*	*I"Tenore	*	*I"Alto	*	*I"Canto	*	*I"Cornu 2do. In D.	*I"Cornu 1mo In D.
*I'Fundamento	*	*	*I'Violino 2do	*	*I'Violino 1mo	*	*I'Baſso	*	*I'Tenore	*	*I'Alto	*	*I'Canto	*	*I'Cornu 2do. In D.	*I'Cornu 1mo In D.
*clefF4	*	*	*clefG2	*	*clefG2	*	*clefF4	*	*clefC4	*	*clefC3	*	*clefC1	*	*clefG2	*clefG2
*	*	*	*	*	*	*	*	*	*	*	*	*	*	*	*ITrd-1c-2	*ITrd-1c-2
*k[f#c#]	*	*	*k[f#c#]	*	*k[f#c#]	*	*k[f#c#]	*	*k[f#c#]	*	*k[f#c#]	*	*k[f#c#]	*	*k[f#c#]	*k[f#c#]
*D:	*	*	*D:	*	*D:	*	*D:	*	*D:	*	*D:	*	*D:	*	*D:	*D:
*M4/4	*	*	*M4/4	*	*M4/4	*	*M4/4	*	*M4/4	*	*M4/4	*	*M4/4	*	*M4/4	*M4/4
*met(c)	*	*	*met(c)	*	*met(c)	*	*met(c)	*	*met(c)	*	*met(c)	*	*met(c)	*	*met(c)	*met(c)
=1	=1	=1	=1	=1	=1	=1	=1	=1	=1	=1	=1	=1	=1	=1	=1	=1
!LO:TX:a::t=Kyrie	!	!	!LO:TX:a::t=Kyrie	!	!LO:TX:a:i:t=KIRIE	!	!	!	!	!	!	!	!	!	!LO:TX:a:t=Kyrie	!LO:TX:a:t=Kyrie
!LO:TX:a:t=Moderatto	!	!	!LO:TX:a:t=Moderatto	!	!LO:TX:a:t=Lente	!	!	!	!LO:TX:a:t=Moderatto	!	!LO:TX:a:t=Moderatto	!	!LO:TX:a:t=Moderatto	!	!LO:TX:a:t=Moderato	!LO:TX:a:t=Moderatto
!	!	!	!	!	!	!	!	!	!	!	!	!	!LO:TX:a:t=P:problem:inny układ krzyżyków przy kluczu	!	!	!
8.d\L	.	.	16aa\LL	.	16aa\LL	.	8.d\	Ky-	8.d\	Ky-	8.a\	Ky-	8.ff#\	Ky-	4dd\	4ff#\
.	.	.	16ff#\	.	16ff#\	.	.	.	.	.	.	.	.	.	.	.
.	.	.	16ee\	.	16ee\	.	.	.	.	.	.	.	.	.	.	.
16A\Jk	.	.	16cc#\JJ	.	16cc#\JJ	.	16A\	-ri-	16c#\	-ri-	16a\	-ri-	16ee\	-ri-	.	.
!LO:TX:a:t=P:problem:mixed beam	!	!	!LO:TX:a:t=P:problem:mixed beam	!	!	!	!	!	!	!	!	!	!	!	!	!
8d\L	.	.	16dd\LL	.	16dd\LL	.	8D\	-e	8A\	-e	8f#\	-e	8dd\	-e	8dd\L	8ff#\L
.	.	.	16f#/	.	16dd\	.	.	.	.	.	.	.	.	.	.	.
8D/J	.	.	16dd\	.	16ff#\	.	8D\	e-	8A\	e-	8f#\	e-	8dd\	e-	8dd\J	8ff#\J
.	.	.	16f#/JJ	.	16dd\JJ	.	.	.	.	.	.	.	.	.	.	.
!	!	!	!	!	!LO:TX:a:t=P:problem:mixed beam	!	!	!	!	!	!	!	!	!	!	!
4D\	.	.	16cc#\LL	.	16ee\LL	.	4A\	-lei-	4A\	-lei-	4a\	-lei-	4ee\	-lei-	4a/	4ee\
.	.	.	16a\JJ	.	16a/JJ	.	.	.	.	.	.	.	.	.	.	.
!	!	!	!LO:TX:a:t=P:problem:klamra łukowa, kropka zamiast numeru:global	!	!LO:TX:a:t=P:problem:klamra łukowa, kropka zamiast numeru:global	!	!	!	!	!	!	!	!	!	!	!
.	.	.	24ee\LL	.	24gg\LL	.	.	.	.	.	.	.	.	.	.	.
.	.	.	24dd\	.	24ff#\	.	.	.	.	.	.	.	.	.	.	.
.	.	.	24cc#\JJ	.	24ee\JJ	.	.	.	.	.	.	.	.	.	.	.
!	!	!	!LO:TX:a:t=P:problem:mixed beam	!	!	!	!	!	!	!	!	!	!	!	!	!
8d\L	.	.	16dd\LL	.	16ff#\LL	.	8d\	-son	8d\	-son	8a\	-son	8ff#\	-son	8dd\	8ff#\
.	.	.	16f#/	.	16dd\	.	.	.	.	.	.	.	.	.	.	.
8c#\J	6 5	.	16bb\	.	16ddd\	.	8c#\	e-	8c#\	e-	8b\	e-	8gg\	e-	8r	8r
.	.	.	16gg\JJ	.	16bb\JJ	.	.	.	.	.	.	.	.	.	.	.
=2	=2	=2	=2	=2	=2	=2	=2	=2	=2	=2	=2	=2	=2	=2	=2	=2
!	!	!	!	!	!	!	!	!	!	!	!	!	!	!	!LO:TX:a:t=1	!
8c#\L	6 5	.	8gg\L	.	8bb\L	.	8c#\	-lei-	8c#\	-lei-	8b\	-lei-	8gg\	-lei-	1r	1r
8d\J	.	.	8ff#\J	.	8aa\J	.	8d\	-son	8d\	-son	8a\	-son	8ff#\	-son	.	.
4r	.	.	16r	.	16r	.	4r	.	4r	.	4r	.	4r	.	.	.
.	.	.	16ff#\LL	.	16aa\LL	.	.	.	.	.	.	.	.	.	.	.
.	.	.	16ff#\	.	16ddd\	.	.	.	.	.	.	.	.	.	.	.
.	.	.	16dd\JJ	.	16ff#\JJ	.	.	.	.	.	.	.	.	.	.	.
!	!	!	!	!	!	!	!LO:SIC:l:s=Ky-(global):v	!	!	!	!	!	!	!	!	!
8.A\L	.	.	16dd\LL	.	16ff#\LL	.	8.A\	Ki-	8.c#\	ky-	8.g\	Ky-	8.ee\	Ky-	.	.
.	7	.	16cc#\	.	[16ee\	.	.	.	.	.	.	.	.	.	.	.
.	.	.	16cc#\	.	16ee\]	.	.	.	.	.	.	.	.	.	.	.
16A\Jk	.	.	16gg\JJ	.	16bb\JJ	.	16A\	-ri-	16c#\	-ri-	16g\	-ri-	16ee\	-ri-	.	.
8A\L	.	.	16ff#\LL	.	16aa\LL	.	8A\	-e	8c#\	-e	8g\	-e	8ee\	-e	.	.
.	.	.	16ee\	.	(16gg\	.	.	.	.	.	.	.	.	.	.	.
8A\J	.	.	16dd\	.	16ff#\)	.	8A\	e-	8c#\	e-	8g\	e-	8ee\	e-	.	.
.	.	.	16cc#\JJ	.	16ee\JJ	.	.	.	.	.	.	.	.	.	.	.
=3	=3	=3	=3	=3	=3	=3	=3	=3	=3	=3	=3	=3	=3	=3	=3	=3
!LO:TX:a:t=P:problem:mixed beam	!	!	!	!	!	!	!	!	!	!	!	!	!	!	!	!
8A\L	.	.	8g/L	.	8ee\L	.	8A\	-lei-	8c#\	-lei-	8g\	-lei-	8ee\	-lei-	8a/L	8ee\L
8D/J	.	.	8f#/J	.	8dd\J	.	8D\	-son	8d\	-son	8f#\	-son	8dd\	-son	8f#/J	8dd\J
4r	.	.	16r	.	16r	.	4r	.	4r	.	4r	.	4r	.	4r	4r
!	!	!	!	!	!LO:TX:a:t=P:problem:mixed beam	!	!	!	!	!	!	!	!	!	!	!
.	.	.	16f#/LL	.	16a\LL	.	.	.	.	.	.	.	.	.	.	.
.	.	.	16f#/	.	16dd\	.	.	.	.	.	.	.	.	.	.	.
.	.	.	16d/JJ	.	16f#/JJ	.	.	.	.	.	.	.	.	.	.	.
*	*	*below	*	*	*	*	*	*	*	*	*	*	*	*	*	*
8.AA/L	.	p	16d/LL	.	(16f#/LL	.	8.A\	Ki-	8.A\	ky-	8.g\	Ky-	8.cc#\	Ky-	2r	2r
.	.	.	16c#/	.	16e/)	.	.	.	.	.	.	.	.	.	.	.
.	.	.	16c#/	.	(16e/	.	.	.	.	.	.	.	.	.	.	.
16AA/Jk	.	.	16g/JJ	.	16b/JJ)	.	16A\	-ri-	16A\	-ri-	16g\	-ri-	16cc#\	-ri-	.	.
8AA/L	.	.	16f#/LL	.	16a/LL	.	8A\	-e	8A\	-e	8g\	-e	8cc#\	-e	.	.
.	.	.	16e/	.	16g/	.	.	.	.	.	.	.	.	.	.	.
8AA/J	.	.	16d/	.	16g/	.	8A\	e-	8A\	e-	8g\	e-	8cc#\	e-	.	.
.	.	.	16c#/JJ	.	16e/JJ	.	.	.	.	.	.	.	.	.	.	.
=4	=4	=4	=4	=4	=4	=4	=4	=4	=4	=4	=4	=4	=4	=4	=4	=4
8AA/L	.	.	8c#/L	.	8e/L	.	8A\	-lei-	8A\	-lei-	8e\	-lei-	8cc#\	-lei-	2r	2r
8D/J	.	.	8d/J	.	8d/J	.	8D\	-son	8A\	-son	8f#\	-son	8dd\	-son	.	.
4r	.	.	16f#/LL	.	16f#/LL	.	4r	.	4r	.	4r	.	4r	.	.	.
.	.	.	16d/	.	16d/	.	.	.	.	.	.	.	.	.	.	.
.	.	.	16f#/	.	16f#/	.	.	.	.	.	.	.	.	.	.	.
.	.	.	16a/JJ	.	16a/JJ	.	.	.	.	.	.	.	.	.	.	.
!LO:TX:a:t=P:problem:mixed beam	!	!LO:DY:t=for.	!LO:TX:a:t=P:problem:mixed beam	!	!	!	!	!	!	!	!	!	!	!	!	!
8.d\L	.	f	16f#/LL	.	(16dd\LL	.	8.d\	Ki-	8.d\	ky-	8.a\	ky-	8.ff#\	ky-	4dd\	4ff#\
.	.	.	16dd\	.	16ff#\)	.	.	.	.	.	.	.	.	.	.	.
.	.	.	16dd\	.	16ff#'\	.	.	.	.	.	.	.	.	.	.	.
16D/Jk	.	.	16dd\JJ	.	16ff#'\JJ	.	16D\	-ri-	16d\	-ri-	16a\	-ri-	16ff#\	-ri-	.	.
8D/L	.	.	16ff#\LL	.	16aa\LL	.	8D\	-e	8d\	-e	8a\	-e	8ff#\	-e	8dd\L	8ff#\L
.	.	.	16dd\	.	16ff#\	.	.	.	.	.	.	.	.	.	.	.
8D/J	.	.	16dd\	.	16ddd\	.	8D\	e-	8d\	e-	8a\	e-	8ff#\	e-	8dd\J	8ff#\J
.	.	.	16dd\JJ	.	16ff#\JJ	.	.	.	.	.	.	.	.	.	.	.
=5	=5	=5	=5	=5	=5	=5	=5	=5	=5	=5	=5	=5	=5	=5	=5	=5
!	!	!	!LO:LB:g=original	!	!LO:LB:g=original	!	!LO:LB:g=original	!	!LO:LB:g=original	!	!LO:LB:g=original	!	!LO:LB:g=original	!	!	!
4A\	.	.	16a\LL	.	16ee\LL	.	4A\	-lei-	4e\	-lei-	4cc#\	-lei-	4gg\	-lei-	4a/	4ee\
.	.	.	16ee\	.	16gg'\	.	.	.	.	.	.	.	.	.	.	.
.	.	.	16ee\	.	16gg'\	.	.	.	.	.	.	.	.	.	.	.
.	.	.	16ee\JJ	.	16gg'\JJ	.	.	.	.	.	.	.	.	.	.	.
4A\	.	.	16ee\LL	.	16gg\LL	.	4c#\	-son	4e\	-son	4cc#\	-son	4gg\	-son	8a/L	8ee\L
.	.	.	16cc#\	.	16ee\	.	.	.	.	.	.	.	.	.	.	.
.	.	.	16gg\	.	16bb\	.	.	.	.	.	.	.	.	.	8a/J	8ee\J
.	.	.	16ee\JJ	.	16gg\JJ	.	.	.	.	.	.	.	.	.	.	.
!LO:TX:a:t=P:problem:mixed beam	!	!	!	!	!	!	!	!	!	!	!	!	!	!	!	!
8d\L	.	.	16dd\LL	.	16ff#\LL	.	8d\	Ki-	8.d\	ky-	8.a\	ky-	8.ff#\	ky-	4dd\	4ff#\
.	.	.	16ff#\	.	16ddd'\	.	.	.	.	.	.	.	.	.	.	.
8D/	.	.	16ff#\	.	16ddd'\	.	8D\	-ri-	.	.	.	.	.	.	.	.
.	.	.	16ff#\JJ	.	16ddd'\JJ	.	.	.	16d\	-ri-	16a\	-ri-	16ff#\	-ri-	.	.
8F#/	.	.	24ff#\LL	.	24ddd\LL	.	8F#\	-e	8d\	-e	8a\	-e	8ff#\	-e	4r	4r
.	.	.	24ee\	.	24ccc#\	.	.	.	.	.	.	.	.	.	.	.
.	.	.	24gg\JJ	.	24bb\JJ	.	.	.	.	.	.	.	.	.	.	.
8D/J	.	.	24ff#\LL	.	24aa\LL	.	8D\	e-	8d\	e-	8a\	e-	8ff#\	e-	.	.
.	.	.	24ee\	.	24gg\	.	.	.	.	.	.	.	.	.	.	.
.	.	.	24dd\JJ	.	24ff#\JJ	.	.	.	.	.	.	.	.	.	.	.
=6	=6	=6	=6	=6	=6	=6	=6	=6	=6	=6	=6	=6	=6	=6	=6	=6
!LO:TX:a:t=P:problem:mixed beam	!	!	!	!	!	!	!	!	!	!	!	!	!	!	!	!
8A\L	.	.	8dd\L	.	(8ff#\L	.	4A\	-lei-	8d\	-lei-	8a\	-lei-	8ff#\	-lei-	8dd\L	8ff#\L
8AA/J	.	.	8cc#\J	.	8ee\J)	.	.	.	8c#\	-son	8a\	-son	8ee\	-son	8a\J	8ee\J
4r	.	.	4ee\	.	4gg\	.	4AA/	-son	4r	.	4r	.	4r	.	4r	4r
!LO:TX:a:t=P:problem:mixed beam	!	!	!	!	!	!	!	!	!	!	!	!	!	!	!	!
8D\L	.	.	24dd\LL	.	24ff#\LL	.	8d\	Ki-	8d\	ky-	8.a\	ky-	8ff#\	ky-	8dd\L	8ff#\L
.	.	.	24ff#\	.	24aa\	.	.	.	.	.	.	.	.	.	.	.
.	.	.	24ff#\JJ	.	24aa\JJ	.	.	.	.	.	.	.	.	.	.	.
8F#\	.	.	24ff#\LL	.	24aa\LL	.	8f#\	-ri-	8d\	-ri-	.	.	8ff#\	-ri-	8dd\	8ff#\
.	.	.	24ff#\	.	24aa\	.	.	.	.	.	.	.	.	.	.	.
.	.	.	.	.	.	.	.	.	.	.	16a\	-ri-	.	.	.	.
.	.	.	24ff#\JJ	.	24aa\JJ	.	.	.	.	.	.	.	.	.	.	.
8E\	.	.	24ee\LL	.	24aa\LL	.	8e\	-e	8e\	-e	8a\	-e	8gg\	-e	8ee\	8gg\
.	.	.	24ee\	.	24aa\	.	.	.	.	.	.	.	.	.	.	.
.	.	.	24ee\JJ	.	24aa\JJ	.	.	.	.	.	.	.	.	.	.	.
8AA/J	.	.	24gg\LL	.	24aa\LL	.	8A\	e-	8e\	e-	8a\	e-	8gg\	e-	8ee\J	8gg\J
.	.	.	24gg\	.	24aa\	.	.	.	.	.	.	.	.	.	.	.
.	.	.	24gg\JJ	.	24aa\JJ	.	.	.	.	.	.	.	.	.	.	.
=7	=7	=7	=7	=7	=7	=7	=7	=7	=7	=7	=7	=7	=7	=7	=7	=7
!LO:TX:a:t=P:problem:mixed beam	!	!	!	!	!	!	!	!	!	!	!	!	!	!	!	!
8D\L	.	.	24dd\LL	.	24aa\LL	.	8d\	-lei-	8d\	-lei-	8a\	-lei-	8ff#\	-lei-	8dd\L	8ff#\L
.	.	.	24ff#\	.	24aa\	.	.	.	.	.	.	.	.	.	.	.
.	.	.	24ff#\JJ	.	24aa\JJ	.	.	.	.	.	.	.	.	.	.	.
*	*	*	*	*	*Xtuplet	*	*	*	*	*	*	*	*	*	*	*
8F#\	.	.	24ff#\LL	.	24aa\LL	.	8f#\	-son	8d\	-son	8a\	-son	8ff#\	-son	8dd\	8ff#\
.	.	.	24ff#\	.	24aa\	.	.	.	.	.	.	.	.	.	.	.
.	.	.	24ff#\JJ	.	24aa\JJ	.	.	.	.	.	.	.	.	.	.	.
8E\	.	.	24ee\LL	.	24aa\LL	.	8e\	e	8e\	ky-	8cc#\	ky-	8gg\	ky-	8ee\	8gg\
.	.	.	24gg\	.	24aa\	.	.	.	.	.	.	.	.	.	.	.
.	.	.	24gg\JJ	.	24aa\JJ	.	.	.	.	.	.	.	.	.	.	.
8AA/J	.	.	24gg\LL	.	24aa\LL	.	8A\	e-	8e\	-ri-	8cc#\	-ri-	8gg\	-ri-	8ee\J	8gg\J
.	.	.	24gg\	.	24aa\	.	.	.	.	.	.	.	.	.	.	.
.	.	.	24gg\JJ	.	24aa\JJ	.	.	.	.	.	.	.	.	.	.	.
!LO:TX:a:t=P:problem:mixed beam	!	!	!	!	!	!	!	!	!	!	!	!	!	!	!LO:TX:a:t=P:problem:mixed beam	!
8D\L	.	.	8ff#\L	.	16ff#\LL	.	8d\	-lei-	8d\	-e	8b\	-e	8ff#\	-e	8dd\L	8ff#\L
.	.	.	.	.	(16ddd\	.	.	.	.	.	.	.	.	.	.	.
8G\	.	.	8gg\	.	16bb\)	.	8G\	.	8e\	e-	8b\	e-	8gg\	e-	8ee\	8gg\
.	.	.	.	.	16gg\JJ	.	.	.	.	.	.	.	.	.	.	.
!	!	!	!	!	!	!	!LO:TX:a:t=P:problem:mixed beam	!	!	!	!	!	!	!	!	!
8A\	.	.	8dd\	.	8ff#\L	.	8A\L	.	8d\L	-lei-	8a\L	-lei-	(8ff#\L	-lei-	8dd\	8ff#\
8AA/J	.	.	8cc#\J	.	8ee\J	.	8AA/J	.	8A\J	.	8g\J	.	8ee\J)	.	8a/J	8ee\J
=8	=8	=8	=8	=8	=8	=8	=8	=8	=8	=8	=8	=8	=8	=8	=8	=8
!	!	!	!	!	!	!	!	!	!	!	!	!	!	!	!LO:LB:g=original	!LO:LB:g=original
4D\	.	.	8dd\	.	8dd\	.	4D\	-son	4A\	-son	4f#\	-son	4dd\	-son	8f#/	8dd\
.	.	.	32aa\LLL	.	32aa\LLL	.	.	.	.	.	.	.	.	.	8r	8r
.	.	.	32gg\	.	(32gg\	.	.	.	.	.	.	.	.	.	.	.
.	.	.	32ff#\	.	32ff#\	.	.	.	.	.	.	.	.	.	.	.
.	.	.	32ee\JJJ	.	32ee\JJJ)	.	.	.	.	.	.	.	.	.	.	.
4r	.	.	4dd\	.	4dd\	.	4r	.	4r	.	4r	.	4r	.	4dd\	4ff#\
*tremolo	*	*	*	*	*	*	*	*	*	*	*	*	*	*	*	*
*2\right	*	*	*	*	*	*	*	*	*	*	*	*	*	*	*	*
!LO:LB:g=original	!	!	!	!	!	!	!	!	!	!	!	!	!	!	!	!
8G\L	.	p	8cc#\L	.	8ee\L	.	8A\	Ki-	8c#\	ky-	8a\	ky-	8ee\	ky-	2r	2r
*	*	*	*	*below	*	*	*	*	*	*	*	*	*	*	*	*
8G\	.	.	(16a\L	p	(16cc#\L	.	8A\	-ri-	(16A\LL	-ri-	8a\	-ri-	(16cc#\LL	-ri-	.	.
.	.	.	16b\JJ)	.	16dd\JJ)	.	.	.	16B\JJ)	.	.	.	16dd\JJ)	.	.	.
8G\	.	.	8cc#\L	.	8ee\L	.	8A\	-e	8c#\	-e	8a\	-e	8ee\	-e	.	.
8G\J	.	.	8cc#\J	.	8ee\J	.	8A\	e-	8c#\	e-	8a\	e-	8ee\	e-	.	.
=9	=9	=9	=9	=9	=9	=9	=9	=9	=9	=9	=9	=9	=9	=9	=9	=9
!	!	!	!	!	!	!	!	!	!	!	!	!	!	!	!	!LO:TX:a:t=5
4A\	.	.	16cc#\LL	.	16ee\LL	.	4A\	-lei-	16c#\LL	-lei-	4a\	-lei-	16ee\LL	-le-	00r	00r
.	.	.	[16dd\	.	[16ff#\	.	.	.	(16d\	.	.	.	[16ff#\	.	.	.
.	.	.	16dd\]	.	16ff#\]	.	.	.	16d\)	.	.	.	16ff#\]	.	.	.
.	.	.	16ee\JJ	.	16gg\JJ	.	.	.	16e\JJ	.	.	.	16gg\JJ	.	.	.
!	!	!	!	!	!LO:LB:g=original	!	!	!	!LO:LB:g=original	!	!	!	!	!	!	!
8A\	.	.	16ee\LL	.	16gg\LL	.	8A\	-son	8e\	-son	8a\	-son	8gg\	-son	.	.
.	.	.	(16cc#\	.	(16ee\	.	.	.	.	.	.	.	.	.	.	.
8r	.	.	16gg\)	.	16bb\)	.	8r	.	8r	.	8r	.	8r	.	.	.
.	.	.	16ee\JJ	.	16gg\JJ	.	.	.	.	.	.	.	.	.	.	.
!	!	!	!	!	!	!	!LO:LB:g=original	!	!	!	!	!	!LO:LB:g=original	!	!	!
8.d\L	.	.	8dd\L	.	8ff#'\L	.	8.d\	Ki-	8.d\	ky-	8.a\	ky-	8.ff#\	ky-	.	.
.	.	.	8ff#\J	.	8aa'\J	.	.	.	.	.	.	.	.	.	.	.
16d\Jk	.	f	.	.	.	.	16d\	-ri-	16d\	-ri-	16a\	-ri-	16ff#\	-ri-	.	.
!LO:TX:a:t=P:problem:mixed beam	!	!	!LO:LB:g=original	!	!	!	!	!	!	!	!	!	!	!	!	!
8d\L	.	.	16ff#\LL	.	16aa\LL	.	8d\	-e	8d\	-e	8a\	-e	8ff#\	-e	.	.
.	.	.	16dd\	.	(16ff#\	.	.	.	.	.	.	.	.	.	.	.
8D/J	.	.	16aa\	.	16ddd\)	.	8D\	e-	8d\	e-	8a\	e-	8ff#\	e-	.	.
.	.	.	16dd\JJ	.	16ff#\JJ	.	.	.	.	.	.	.	.	.	.	.
=10	=10	=10	=10	=10	=10	=10	=10	=10	=10	=10	=10	=10	=10	=10	=10	=10
!	!	!	!	!	!	!	!	!	!	!	!LO:LB:g=original	!	!	!	!	!
!LO:TX:a:t=P:problem:mixed beam	!	!	!	!	!	!	!	!	!	!	!	!	!	!	!	!
8A\L	.	.	8dd\L	.	(8ff#\L	.	8A\	-lei-	8d\	-lei-	8a\	-lei-	8ff#\	-lei-	.	.
8AA/J	.	.	8cc#\J	.	8ee\J)	.	8AA/	-son	8c#\	-son	8a\	-son	8ee\	-son	.	.
4r	.	.	16a\LL	.	16a\LL	.	4r	.	4r	.	4r	.	4r	.	.	.
.	.	.	16aa\	.	(16aa\	.	.	.	.	.	.	.	.	.	.	.
.	.	.	16ee\	.	16ee\)	.	.	.	.	.	.	.	.	.	.	.
.	.	.	16cc#\JJ	.	16cc#\JJ	.	.	.	.	.	.	.	.	.	.	.
8A\L	.	p	8a\L	.	8a\L	.	8A\	Ki-	8c#\	ky-	8a\	ky-	8ee\	ky-	.	.
8A\	.	.	(16a\L	.	(16cc#\L	.	8A\	-ri-	16A\LL	-ri-	8a\	-ri-	16cc#\LL	-ri-	.	.
*	*	*	*	*	*	*below	*	*	*	*	*	*	*	*	*	*
.	.	.	16b\JJ)	.	16dd\JJ)	p	.	.	16B\JJ	.	.	.	16dd\JJ	.	.	.
8A\	.	.	8cc#\L	.	8ee\L	.	8A\	-e	8c#\	-e	8a\	-e	8ee\	-e	.	.
8A\J	.	.	8cc#\J	.	8ee\J	.	8A\	e-	8c#\	e-	8a\	e-	8ee\	e-	.	.
*Xtremolo	*	*	*	*	*	*	*	*	*	*	*	*	*	*	*	*
=11	=11	=11	=11	=11	=11	=11	=11	=11	=11	=11	=11	=11	=11	=11	=11	=11
4A\	7	.	16cc#\LL	.	16ee\LL	.	4A\	-lei-	(16c#\LL	-lei-	4a\	-lei-	16ee\LL	-lei-	.	.
.	.	.	[16dd\	.	[16ff#\	.	.	.	16d\	.	.	.	[16ff#\	.	.	.
.	.	.	16dd\]	.	16ff#\]	.	.	.	16d\)	.	.	.	16ff#\]	.	.	.
.	.	.	16ee\JJ	.	16gg\JJ	.	.	.	16e\JJ	-son	.	.	16gg\JJ	.	.	.
8A\	.	.	16ee\LL	.	16gg\LL	.	8A\	-son	8e\	.	8a\	-son	8gg\	-son	.	.
.	.	.	(16cc#\	.	(16ee\	.	.	.	.	.	.	.	.	.	.	.
8r	.	.	16gg\)	.	16bb\)	.	8r	.	8r	.	8r	.	8r	.	.	.
.	.	.	16ee\JJ	.	16gg\JJ	.	.	.	.	.	.	.	.	.	.	.
!LO:TX:a:t=P:problem:mixed beam	!	!	!LO:TX:a:t=P:problem:mixed beam	!	!	!	!	!	!	!	!	!	!	!	!	!
8.d\L	.	.	8dd\L	.	8ff#\L	.	8d\	Ki-	8d\	ky-	8a\	ky-	8ff#\	ky-	.	.
.	.	.	(16f#/L	.	(16dd\L	.	8D\	-ri-	8d\	-ri-	8a\	-ri-	16dd\LL	-ri-	.	.
16D/Jk	.	.	16a/JJ)	.	16ee\JJ)	.	.	.	.	.	.	.	16ee\JJ	.	.	.
8D/L	.	.	8dd\L	.	8ff#'\L	.	8D\	-e	8d\	-e	8a\	-e	8ff#\	-e	.	.
8D/J	.	.	8dd\J	.	8ff#'\J	.	8D\	e-	8d\	e-	8a\	e-	8ff#\	e-	.	.
=12	=12	=12	=12	=12	=12	=12	=12	=12	=12	=12	=12	=12	=12	=12	=12	=12
8D/L	.	.	16dd\LL	.	16ff#\LL	.	8D\	-lei-	8d\	-lei-	8a\	-lei-	8ff#\	-lei-	.	.
.	.	.	[16ee\	.	[16gg\	.	.	.	.	.	.	.	.	.	.	.
8D/J	.	.	16ee\]	.	16gg\]	.	8D\	-son	8d\	-son	8a\	-son	8ee\	-son	.	.
.	.	.	16ff#\JJ	.	16aa\JJ	.	.	.	.	.	.	.	.	.	.	.
4r	.	.	16ff#\LL	.	16aa'\LL	.	4r	.	4r	.	4r	.	4r	.	.	.
.	.	.	16dd\	.	(16ff#\	.	.	.	.	.	.	.	.	.	.	.
.	.	.	16ff#\	.	16ddd\)	.	.	.	.	.	.	.	.	.	.	.
.	.	.	16dd\JJ	.	16ff#\JJ	.	.	.	.	.	.	.	.	.	.	.
*tremolo	*	*	*	*	*	*	*	*	*	*	*	*	*	*	*	*
8A\L	f	.	8ee\L	.	8gg\L	.	8.A\	Ki-	8.c#\	ky-	8.a\	ky-	8.ee\	ky-	.	.
8A\	.	.	(16cc#\L	.	(16ee\L	.	.	.	.	.	.	.	.	.	.	.
.	.	.	16dd\JJ)	.	16ff#\JJ)	.	16A\	-ri-	16c#\	-ri-	16a\	-ri-	16ee\	-ri-	.	.
8A\	.	.	8ee\L	.	8gg\L	.	8A\	-e	8c#\	-e	8a\	-e	8ee\	-e	.	.
8A\J	.	.	8ee\J	.	8gg\J	.	8A\	e-	8c#\	e-	8a\	e-	8ee\	e-	.	.
*Xtremolo	*	*	*	*	*	*	*	*	*	*	*	*	*	*	*	*
=13	=13	=13	=13	=13	=13	=13	=13	=13	=13	=13	=13	=13	=13	=13	=13	=13
!	!	!	!	!	!	!	!LO:LB:g=original	!	!	!	!	!	!	!	!	!
!LO:TX:a:t=P:problem:mixed beam	!	!	!	!	!	!	!	!	!LO:SIC:l:s=-lei-:v	!	!	!	!	!	!	!
8A\L	.	.	16ee\LL	.	16gg\LL	.	8A\	-lei-	8c#\	-ley-	16g\LL	-lei-	16ee\LL	-lei-	1r	1r
.	.	.	[16gg\	.	[16bb\	.	.	.	.	.	(16b\	.	16gg\	.	.	.
8AA/J	.	.	16gg\]	.	16bb\]	.	8A\	-son	8c#\	-son	16b\)	.	16gg\	.	.	.
.	.	.	16ff#\JJ	.	16aa\JJ	.	.	.	.	.	16a\JJ	.	16ff#\JJ	.	.	.
!	!	!	!	!	!	!	!	!	!LO:LB:g=original	!	!	!	!	!	!	!
4r	.	.	16ff#\LL	.	16aa\LL	.	4r	.	4r	.	16a\LL	.	16ff#\LL	.	.	.
.	.	.	[16ee\	.	[16gg\	.	.	.	.	.	[16g\	.	[16ee\	.	.	.
.	.	.	16ee\]	.	16gg\]	.	.	.	.	.	16g]	.	16ee\]	.	.	.
.	.	.	16dd\JJ	.	16ff#\JJ	.	.	.	.	.	16f#\JJ	.	16dd\JJ	.	.	.
!LO:TX:a:t=P:problem:mixed beam	!	!	!	!	!	!	!	!	!	!	!	!	!	!	!	!
8D\L	.	.	8dd\L	.	16ff#\LL	.	4d\	e-	(8A\L	e-	8f#\	-son	8dd\	-son	.	.
.	.	.	.	.	16ddd\JJ	.	.	.	.	.	.	.	.	.	.	.
*	*	*	*	*	*tuplet	*	*	*	*	*	*	*	*	*	*	*
!	!	!	!	!	!	!	!	!	!	!	!	!	!LO:LB:g=original	!	!	!
8G\	.	.	8ee\	.	24bb\LL	.	.	.	8d\J)	.	8b\	e-	8gg\	e-	.	.
.	.	.	.	.	24aa\	.	.	.	.	.	.	.	.	.	.	.
.	.	.	.	.	24gg\JJ	.	.	.	.	.	.	.	.	.	.	.
!	!	!	!	!	!	!	!LO:TX:a:t=P:problem:mixed beam	!	!	!	!	!	!	!	!	!
8A\	.	.	8dd\	.	8ff#\L	.	8A\L	-lei-	4A\	-lei-	8a\L	-lei-	8ff#\L	-lei-	.	.
8AA/J	.	.	8cc#\J	.	8ee\J	.	8AA/J	.	.	.	8g\J	.	8ee\J	.	.	.
=14	=14	=14	=14	=14	=14	=14	=14	=14	=14	=14	=14	=14	=14	=14	=14	=14
!	!	!	!	!	!LO:LB:g=original	!	!	!	!	!	!	!	!	!	!	!
!LO:TX:a:t=P:problem:mixed beam	!	!	!	!	!	!	!	!	!	!	!	!	!	!	!	!
8D\L	.	.	16dd\LL	.	16ff#\LL	.	4D\	-son	4A\	-son	4f#\	-son	4dd\	-son	8dd\L	8ff#\L
!	!	!	!	!	!	!LO:DY:t=for&colon;	!	!	!	!	!	!	!	!	!	!
.	.	.	16ff#\	.	16aa'\	f	.	.	.	.	.	.	.	.	.	.
8F#\	.	.	16ff#\	.	16aa'\	.	.	.	.	.	.	.	.	.	8dd\	8ff#\
.	.	.	16ff#\JJ	.	16aa'\JJ	.	.	.	.	.	.	.	.	.	.	.
!	!	!	!	!	!	!	!	!	!	!	!	!	!	!	!	!
*	*	*	*Xtuplet	*	*	*	*	*	*	*	*	*	*	*	*	*
8E\	.	.	24ee\LL	.	24a\LL	.	4r	.	4r	.	4r	.	4r	.	8ee\	8gg\
.	.	.	24ee\	.	24cc#\	.	.	.	.	.	.	.	.	.	.	.
.	.	.	24ee\JJ	.	24ee\JJ	.	.	.	.	.	.	.	.	.	.	.
8AA/J	.	.	24gg\LL	.	24gg\LL	.	.	.	.	.	.	.	.	.	8ee\J	8gg\J
.	.	.	24gg\	.	24ff#\	.	.	.	.	.	.	.	.	.	.	.
.	.	.	24gg\JJ	.	24ee\JJ	.	.	.	.	.	.	.	.	.	.	.
!LO:TX:a:t=P:problem:mixed beam	!	!	!	!	!	!	!	!	!	!	!	!	!	!	!	!
8D\L	.	.	16dd\LL	.	16ff#\LL	.	8D\	Ki-	8d\	ky-	8a\	ky-	8ff#\L	ky-	8dd\L	8ff#\L
.	.	.	16ff#\	.	16aa'\	.	.	.	.	.	.	.	.	.	.	.
8F#\	.	.	16ff#\	.	16aa'\	.	8d\	-ri-	8d\	-ri-	8a\	-ri-	8ff#\J	-ri-	8dd\	8ff#\
.	.	.	16ff#\JJ	.	16aa'\JJ	.	.	.	.	.	.	.	.	.	.	.
8E\	.	.	24ee\LL	.	24a\LL	.	8e\	-e	8e\	-e	8a\	-e	8gg\	-e	8ee\	8gg\
.	.	.	24ee\	.	24cc#\	.	.	.	.	.	.	.	.	.	.	.
.	.	.	24ee\JJ	.	24ee\JJ	.	.	.	.	.	.	.	.	.	.	.
8AA/J	.	.	24gg\LL	.	24gg\LL	.	8A\	e-	8e\	e-	8a\	e-	8gg\	e-	8ee\J	8gg\J
.	.	.	24gg\	.	24ff#\	.	.	.	.	.	.	.	.	.	.	.
.	.	.	24gg\JJ	.	24ee\JJ	.	.	.	.	.	.	.	.	.	.	.
=15	=15	=15	=15	=15	=15	=15	=15	=15	=15	=15	=15	=15	=15	=15	=15	=15
!	!	!	!LO:LB:g=original	!	!	!	!	!	!	!	!LO:LB:g=original	!	!	!	!	!
!LO:TX:a:t=P:problem:mixed beam	!	!	!	!	!	!	!	!	!	!	!	!	!	!	!LO:TX:a:t=P:problem:mixed beam	!
8D\L	.	.	8ff#\L	.	16ff#\LL	.	(8D\L	-lei-	(8d\L	-lei-	(8a\L	-lei-	(8ff#\L	-lei-	8dd\L	8ff#\L
.	.	.	.	.	16ddd\JJ	.	.	.	.	.	.	.	.	.	.	.
8d\	.	.	8ee\	.	24bb\LL	.	8d\J)	.	8e\J)	.	8b\J)	.	8gg\J)	.	8ee\	8gg\
.	.	.	.	.	24aa\	.	.	.	.	.	.	.	.	.	.	.
.	.	.	.	.	24gg\JJ	.	.	.	.	.	.	.	.	.	.	.
8A\	.	.	8dd\	.	8ff#\L	.	(8G\L	.	(8d\L	.	4a\	.	(8ff#\L	.	8dd\	8ff#\
8AA/J	.	.	8cc#\J	.	8ee\J	.	8A\J)	.	8c#\J)	.	.	.	8ee\J)	.	8a/J	8ee\J
4D\	.	.	8dd\	.	8dd\	.	4D\	-son	4A\	-son	4f#\	-son	4dd\	-son	8f#/	8dd\
.	.	.	32aa\LLL	.	32aa\LLL	.	.	.	.	.	.	.	.	.	8r	8r
.	.	.	32gg\	.	32gg\	.	.	.	.	.	.	.	.	.	.	.
.	.	.	32ff#\	.	32ff#\	.	.	.	.	.	.	.	.	.	.	.
.	.	.	32ee\JJJ	.	32ee\JJJ	.	.	.	.	.	.	.	.	.	.	.
4r	.	.	4dd\	.	4dd\	.	4r	.	4r	.	4r	.	4r	.	4f#/	4r
=16	=16	=16	=16	=16	=16	=16	=16	=16	=16	=16	=16	=16	=16	=16	=16	=16
4r	.	.	16aa\LL	.	16aa\LL	.	4r	.	4r	.	4r	.	4r	.	00r	00r
.	.	.	16ff#\	.	(16ff#\	.	.	.	.	.	.	.	.	.	.	.
.	.	.	16ee\	.	16ee\)	.	.	.	.	.	.	.	.	.	.	.
.	.	.	16dd\JJ	.	16dd\JJ	.	.	.	.	.	.	.	.	.	.	.
8G\L	.	.	16b\LL	.	16dd'\LL	.	8G\	Ki-	8d\	ky-	8b\	ky-	8dd\	ky-	.	.
.	.	.	16b\	.	16dd'\	.	.	.	.	.	.	.	.	.	.	.
8D\J	.	.	16a\	.	16ccn'\	.	8D\	-ri-	8d\	-ri-	8a\	-ri-	8ccn\	-ri-	.	.
.	.	.	16a\JJ	.	16cc'\JJ	.	.	.	.	.	.	.	.	.	.	.
!LO:TX:a:t=P:problem:mixed beam	!	!	!LO:TX:a:t=P:problem:mixed beam	!	!	!	!	!	!	!	!	!	!	!	!	!
8G\L	.	.	8g/L	.	16b\LL	.	8G\	-e	8d\	-e	8g\	-e	8b\	-e	.	.
.	.	.	.	.	(16dd\	.	.	.	.	.	.	.	.	.	.	.
8B\	.	.	8dd\	.	16gg\)	.	8B\	e-	8d\	e-	8b\	e-	8dd\	e-	.	.
.	.	.	.	.	16bb\JJ	.	.	.	.	.	.	.	.	.	.	.
8A\	.	.	8cc#\	.	16aa\LL	.	8G\L	-lei-	4d\	-lei-	(8a\L	-lei-	8cc\L	-lei-	.	.
.	.	.	.	.	(16ff#\	.	.	.	.	.	.	.	.	.	.	.
8D/J	.	.	8a\J	.	16dd\)	.	8D\J	.	.	.	8f#\J)	.	8a\J	.	.	.
.	.	.	.	.	16cc\JJ	.	.	.	.	.	.	.	.	.	.	.
=17	=17	=17	=17	=17	=17	=17	=17	=17	=17	=17	=17	=17	=17	=17	=17	=17
!LO:TX:a:t=P:problem:mixed beam	!	!	!	!	!	!	!	!	!	!	!	!	!	!	!	!
8G\L	.	.	8b\L	.	16b\LL	.	8G\	-son	8d\	-son	8g\	-son	8b\	-son	.	.
.	.	.	.	.	(16dd\	.	.	.	.	.	.	.	.	.	.	.
8B\	.	.	8dd\	.	16gg\)	.	8B\	e-	8d\	e-	8b\	e-	8dd\L	e-	.	.
.	.	.	.	.	16bb\JJ	.	.	.	.	.	.	.	.	.	.	.
8A\	.	.	8cc#\	.	16aa\LL	.	8G\L	-lei-	4d\	-lei-	(8a\L	-lei-	8ccn\	-lei-	.	.
.	.	.	.	.	(16ff#\	.	.	.	.	.	.	.	.	.	.	.
8AA/J	.	.	8a\J	.	16dd\)	.	8D\J	.	.	.	8f#\J)	.	8a\J	.	.	.
.	.	.	.	.	16cc#\JJ	.	.	.	.	.	.	.	.	.	.	.
!	!	!	!	!	!LO:TX:a:t=P:problem:kasownik dopisany ołówkiem	!	!	!	!	!	!	!	!	!	!	!
8D\L	7	.	8a/L	.	8cc#\L	.	4G\	-son.	4d\	-son	4g\	-son	4b\	-son	.	.
8G\J	.	.	8g/J	.	8b\J	.	.	.	.	.	.	.	.	.	.	.
4r	.	.	8r	.	8r	.	4r	.	4r	.	4r	.	4r	.	.	.
.	.	.	16bb\LL	.	(16bb\LL	.	.	.	.	.	.	.	.	.	.	.
!	!	!	!LO:SIC:s=16ggn:v	!	!	!	!	!	!	!	!	!	!	!	!	!
.	.	.	16gg#X\JJ	.	16gg\JJ)	.	.	.	.	.	.	.	.	.	.	.
=18	=18	=18	=18	=18	=18	=18	=18	=18	=18	=18	=18	=18	=18	=18	=18	=18
4r	.	.	16ee\LL	.	16ee'\LL	.	4r	.	8e\	ky-	4r	.	4r	.	.	.
.	.	.	16ee\	.	16ee'\	.	.	.	.	.	.	.	.	.	.	.
.	.	.	16ee\	.	16ee'\	.	.	.	8e\	-ri-	.	.	.	.	.	.
.	.	.	16ee\JJ	.	16ee'\JJ	.	.	.	.	.	.	.	.	.	.	.
!	!	!	!	!	!LO:LB:g=original	!	!	!	!	!	!	!	!	!	!	!
*	*	*	*	*	*	*	*	*	*2\right	*	*	*	*	*	*	*
8E\L	#	.	16cc#\LL	.	16ee'\LL	.	8E\	Ki-	2e\	-e	8cc#\	ky-	8ee\	ky-	.	.
.	.	.	16cc#\	.	16ee'\	.	.	.	.	.	.	.	.	.	.	.
8E\J	.	.	16b\	.	16dd'\	.	8E\	-ri-	.	.	8b\	-ri-	8dd\	-ri-	.	.
.	.	.	16b\JJ	.	16dd'\JJ	.	.	.	.	.	.	.	.	.	.	.
8A\L	.	.	8cc#\L	.	16cc#\LL	.	8A\	-e	.	.	8a\	-e	8cc#\	-e	.	.
.	.	.	.	.	(16ee\	.	.	.	.	.	.	.	.	.	.	.
8c#\	.	.	8ee\	.	16aa\)	.	8c#\	e-	.	.	8cc#\	e-	8ee\	e-	.	.
.	.	.	.	.	16ccc#\JJ	.	.	.	.	.	.	.	.	.	.	.
8B\	.	.	8dd\	.	16bb\LL	.	(8B\L	-lei-	4e\	e-	8b\L	-lei-	8dd\L	-lei-	.	.
.	.	.	.	.	(16gg\	.	.	.	.	.	.	.	.	.	.	.
8E\J	.	.	8b\J	.	16ee\)	.	8E\J)	.	.	.	8e\J	.	8b\J	.	.	.
.	.	.	.	.	16dd\JJ	.	.	.	.	.	.	.	.	.	.	.
=19	=19	=19	=19	=19	=19	=19	=19	=19	=19	=19	=19	=19	=19	=19	=19	=19
8A\L	.	.	8cc#\L	.	16cc#\LL	.	8A\	-son	2e\	-lei-	8a\	-son	8cc#\	-son	.	.
.	.	.	.	.	(16ee\	.	.	.	.	.	.	.	.	.	.	.
8c#\	.	.	8ee\	.	16aa\)	.	8c#\	e-	.	.	8cc#\	e-	8ee\	e-	.	.
.	.	.	.	.	16ccc#\JJ	.	.	.	.	.	.	.	.	.	.	.
!	!	!	!	!	!	!	!	!	!	!	!	!	!LO:LB:g=original	!	!	!
8B\	.	.	8dd\	.	16bb\LL	.	8B\L	-lei-	.	.	8b\L	-lei-	(8dd\L	-lei-	.	.
.	.	.	.	.	16gg\	.	.	.	.	.	.	.	.	.	.	.
8E\J	.	.	8b\J	.	16ee\	.	8E\J	.	.	.	8e\J	.	8b\J)	.	.	.
.	.	.	.	.	16dd\JJ	.	.	.	.	.	.	.	.	.	.	.
!	!	!	!	!	!	!	!	!	!LO:LB:g=original	!	!	!	!	!	!	!
4A\	.	.	8b\L	.	8dd\L	.	4A\	-son	4e\	-son	4a\	-son	4cc#\	-son	.	.
.	.	.	8a\J	.	8cc#\J	.	.	.	.	.	.	.	.	.	.	.
4r	.	.	8r	.	8r	.	4r	.	4r	.	4r	.	4r	.	.	.
.	.	.	16aa\LL	.	(16aa\LL	.	.	.	.	.	.	.	.	.	.	.
.	.	.	16ff#\JJ	.	16ff#\JJ)	.	.	.	.	.	.	.	.	.	.	.
=20	=20	=20	=20	=20	=20	=20	=20	=20	=20	=20	=20	=20	=20	=20	=20	=20
!	!	!	!LO:TX:a:t=P:problem:mixed beam	!	!LO:TX:a:t=P:problem:mixed beam	!	!	!	!	!	!	!	!	!	!	!
8.d\L	.	.	16dd\LL	.	(16dd\LL	.	8.d\	Ki-	8.d\	Ky-	8.a\	ky-	8.ff#\	ky-	4dd\	4ff#\
.	.	.	16f#/	.	16f#/)	.	.	.	.	.	.	.	.	.	.	.
.	.	.	16a/	.	(16a/	.	.	.	.	.	.	.	.	.	.	.
16A\Jk	.	.	16dd/JJ	.	16dd/JJ)	.	16A\	-ri-	16c#\	-ri-	16a\	-ri-	16ee\	-ri-	.	.
!LO:TX:a:t=P:problem:mixed beam	!	!	!	!	!	!	!	!	!	!	!	!	!	!	!	!
8d\L	.	.	16ff#\LL	.	16ff#'\LL	.	8D\	-e	8A\	-e	8f#\	-e	8dd\	-e	8dd\L	8ff#\L
.	.	.	16dd\	.	16dd'\	.	.	.	.	.	.	.	.	.	.	.
8D/J	.	.	16ff#\	.	16ff#'\	.	8D\	e-	8A\	e-	8f#\	e-	8dd\	e-	8dd\J	8ff#\J
.	.	.	16aa\JJ	.	16aa'\JJ	.	.	.	.	.	.	.	.	.	.	.
!	!	!	!LO:TX:a:t=P:problem:mixed beam	!	!LO:TX:a:t=P:problem:mixed beam	!	!	!	!	!	!LO:LB:g=original	!	!	!	!	!
4A\	.	.	16ee\LL	.	16ee\LL	.	4A\	-lei-	4A\	-lei-	4a\	-lei-	4ee\	-lei-	4a/	4ee\
.	.	.	16a/JJ	.	16a/JJ	.	.	.	.	.	.	.	.	.	.	.
.	.	.	24ee\LL	.	24gg\LL	.	.	.	.	.	.	.	.	.	.	.
.	.	.	24dd\	.	24ff#\	.	.	.	.	.	.	.	.	.	.	.
.	.	.	24cc#\JJ	.	24ee\JJ	.	.	.	.	.	.	.	.	.	.	.
!	!	!	!LO:TX:a:t=P:problem:mixed beam	!	!	!	!	!	!	!	!	!	!	!	!	!
8d\L	.	.	16dd\LL	.	16ff#\LL	.	8d\	-son	8d\	-son	8a\	-son	8ff#\	-son	8dd\L	8ff#\L
.	.	.	16f#/	.	(16dd\	.	.	.	.	.	.	.	.	.	.	.
8c#\J	.	.	16bb\	.	16ddd\)	.	8c#\	e-	8c#\	e-	8b\	e-	8gg\	e-	8ee\J	8gg\J
.	.	.	16gg\JJ	.	16bb\JJ	.	.	.	.	.	.	.	.	.	.	.
=21	=21	=21	=21	=21	=21	=21	=21	=21	=21	=21	=21	=21	=21	=21	=21	=21
8c#\L	.	.	8gg\L	.	8bb\L	.	8c#\	-lei-	8c#\	-lei-	8b\	-lei-	8gg\	-lei-	8ee\L	8gg\L
8d\J	.	.	8ff#\J	.	8aa\J	.	8d\	-son	8d\	-son	8a\	-son	8ff#\	-son	8dd\J	8ff#\J
4r	.	.	16r	.	16r	.	4r	.	4r	.	4r	.	4r	.	4r	4r
.	.	.	16ff#\LL	.	16aa\LL	.	.	.	.	.	.	.	.	.	.	.
.	.	.	16ff#\	.	16ddd\	.	.	.	.	.	.	.	.	.	.	.
.	.	.	16dd\JJ	.	16ff#\JJ	.	.	.	.	.	.	.	.	.	.	.
!	!	!	!LO:LB:g=original	!	!	!	!LO:LB:g=original	!	!	!	!	!	!	!	!	!
8.A\L	.	.	16dd\LL	.	16ff#\LL	.	8.A\	Ki-	8.c#\	ky-	8.g\	ky-	8.ee\	ky-	2r	2r
.	.	.	16cc#\	.	[16ee\	.	.	.	.	.	.	.	.	.	.	.
.	.	.	16cc#\	.	16ee\]	.	.	.	.	.	.	.	.	.	.	.
16A\Jk	.	.	16gg\JJ	.	16bb\JJ	.	16A\	-ri-	16c#\	-ri-	16g\	-ri-	16ee\	-ri-	.	.
8A\L	.	.	16ff#\LL	.	16aa\LL	.	8A\	-e	8c#\	-e	8g\	-e	8ee\	-e	.	.
.	.	.	16ee\	.	(16gg\	.	.	.	.	.	.	.	.	.	.	.
8A\J	.	.	16dd\	.	16ff#\)	.	8A\	e-	8c#\	e-	8g\	e-	8ee\	e-	.	.
.	.	.	16cc#\JJ	.	16ee\JJ	.	.	.	.	.	.	.	.	.	.	.
=22	=22	=22	=22	=22	=22	=22	=22	=22	=22	=22	=22	=22	=22	=22	=22	=22
!LO:TX:a:t=P:problem:mixed beam	!	!	!	!	!	!LO:DY:t=pia&colon;	!	!	!	!	!	!	!	!	!	!
8A\L	.	.	8g/L	.	8ee\L	p	8A\	-lei-	8c#\	-lei-	8g\	-lei-	8ee\	-lei-	8a/L	8ee\L
8D/J	.	.	8f#/J	.	8dd\J	.	8D\	-son	8d\	-son	8f#\	-son	8dd\	-son	8f#/J	8dd\J
4r	.	.	16r	.	16r	.	4r	.	4r	.	4r	.	4r	.	4r	4r
!	!	!	!	!	!LO:TX:a:t=P:problem:mixed beam	!	!	!	!	!	!	!	!	!	!	!
.	.	.	16f#/LL	.	16a\LL	.	.	.	.	.	.	.	.	.	.	.
.	.	.	16f#/	.	16dd\	.	.	.	.	.	.	.	.	.	.	.
.	.	.	16d/JJ	.	16f#/JJ	.	.	.	.	.	.	.	.	.	.	.
8.AA/L	.	p	16d/LL	.	16f#/LL	.	8.A\	Ki-	8.A\	ky-	8.g\	ky-	8.cc#\	ky-	2r	2r
.	.	.	16c#/	.	[16e/	.	.	.	.	.	.	.	.	.	.	.
.	.	.	16c#/	.	16e/]	.	.	.	.	.	.	.	.	.	.	.
16AA/Jk	.	.	16g/JJ	.	16b/JJ	.	16A\	-ri-	16A\	-ri-	16g\	-ri-	16cc#\	-ri-	.	.
8AA/L	.	.	16f#/LL	.	16a/LL	.	8A\	-e	8A\	-e	8g\	-e	8cc#\	-e	.	.
.	.	.	16e/	.	(16g/	.	.	.	.	.	.	.	.	.	.	.
8AA/J	.	.	16d/	.	16f#/)	.	8A\	e-	8A\	e-	8g\	e-	8cc#\	e-	.	.
.	.	.	16c#/JJ	.	16e/JJ	.	.	.	.	.	.	.	.	.	.	.
=23	=23	=23	=23	=23	=23	=23	=23	=23	=23	=23	=23	=23	=23	=23	=23	=23
!	!	!	!	!	!LO:LB:g=original	!	!	!	!	!	!	!	!	!	!	!
!LO:TX:a:t=P:problem:mixed beam	!	!	!LO:TX:a:t=P:problem:mixed beam	!	!	!	!	!	!	!	!	!	!	!	!	!
8D\L	.	.	16d/LL	.	16ff#\LL	.	8D\	-lei-	8A\	-lei-	8a\	-lei-	8dd\	-lei-	8dd\L	8ff#\L
.	.	.	16ff#\	.	16aa\	.	.	.	.	.	.	.	.	.	.	.
8F#\	.	.	16ff#\	.	16aa\	.	8F#\	-son	8d\	-son	8a\	-son	8ff#\	-son	8dd\	8ff#\
.	.	.	16ff#\JJ	.	16aa\JJ	.	.	.	.	.	.	.	.	.	.	.
8E\	.	.	24ee\LL	.	24aa\LL	.	8E\	Ki-	8e\	ky-	8a\	ky-	8gg\	ky-	8ee\	8gg\
.	.	.	24ee\	.	24aa\	.	.	.	.	.	.	.	.	.	.	.
.	.	.	24ee\JJ	.	24aa\JJ	.	.	.	.	.	.	.	.	.	.	.
8AA/J	.	.	24gg\LL	.	24aa\LL	.	8AA/	-ri-	8A\	-ri-	8a\	-ri-	8ee\	-ri-	8ee\J	8gg\J
.	.	.	24gg\	.	24aa\	.	.	.	.	.	.	.	.	.	.	.
.	.	.	24gg\JJ	.	24aa\JJ	.	.	.	.	.	.	.	.	.	.	.
!LO:TX:a:t=P:problem:mixed beam	!	!	!	!	!	!	!	!	!	!	!	!	!	!	!	!
8D\L	.	.	16dd\LL	.	16ff#\LL	.	8D\	-e	8d\	-e	8a\	-e	8.ff#\	-e	8dd\L	8ff#\L
.	.	.	16ff#\	.	16aa\	.	.	.	.	.	.	.	.	.	.	.
8F#\	.	.	16ff#\	.	16aa\	.	8F#\	e-	8f#\	e-	8a\	e-	.	.	8dd\	8ff#\
.	.	.	16ff#\JJ	.	16aa\JJ	.	.	.	.	.	.	.	16aa\	e-	.	.
8E\	.	.	24ee\LL	.	24aa\LL	.	8E\	-lei-	8e\	-lei-	8a\	-lei-	8gg\	-lei-	8ee\	8gg\
.	.	.	24ee\	.	24aa\	.	.	.	.	.	.	.	.	.	.	.
.	.	.	24ee\JJ	.	24aa\JJ	.	.	.	.	.	.	.	.	.	.	.
!	!	!	!	!	!	!	!	!	!LO:LB:g=original	!	!	!	!LO:LB:g=original	!	!	!
8AA/J	.	.	24gg\LL	.	24aa\LL	.	8AA/	-son	8A\	-son	8a\	-son	8ee\	-son	8ee\J	8gg\J
.	.	.	24gg\	.	24aa\	.	.	.	.	.	.	.	.	.	.	.
.	.	.	24gg\JJ	.	24aa\JJ	.	.	.	.	.	.	.	.	.	.	.
=24	=24	=24	=24	=24	=24	=24	=24	=24	=24	=24	=24	=24	=24	=24	=24	=24
!	!	!	!	!	!	!	!	!	!	!	!	!	!	!	!LO:LB:g=original	!
!LO:TX:a:t=P:problem:mixed beam	!	!	!	!	!	!	!	!	!	!	!	!	!	!	!LO:TX:a:t=P:problem:mixed beam	!
8D\L	.	.	8ff#\L	.	(16ff#\LL	.	8r	.	8r	.	8r	.	8r	.	8dd\L	8ff#\L
.	.	.	.	.	16ddd\)	.	.	.	.	.	.	.	.	.	.	.
8G\	.	.	8ee\	.	(16bb\	.	8G\	e-	8d\	e-	(8b\L	ky-	8gg\	e-	8ee\	8gg\
.	.	.	.	.	16gg\JJ)	.	.	.	.	.	.	.	.	.	.	.
!	!	!	!	!	!	!	!LO:TX:a:t=P:problem:mixed beam	!	!	!	!	!	!	!	!	!
8A\	.	.	8dd\	.	8ff#\L	.	8A\L	-lei-	(8d\L	-lei-	8a\)J	.	(8ff#\L	-lei-	8dd\	8ff#\
8AA/J	.	.	8cc#\J	.	8ee\J	.	8AA/J	.	8c#\J)	.	8g\	-ri-	8ee\J)	.	8a/J	8ee\J
!	!	!	!	!	!	!	!	!	!	!	!	!	!	!	!	!LO:LB:g=original
4D\	.	.	4dd\	.	4dd\	.	4D\	-son	4A\	-son	4f#\	-e	4dd\	-son	4f#/	4dd\
4A\	.	.	8cc#\L	.	8ee\L	.	4A\	e-	8c#\	ky-	4a\	e-	8ee\L	ky-	8a/L	8ee\L
.	.	.	8ee\J	.	8gg\J	.	.	.	8d\	-ri-	.	.	8gg\J	-ri-	8ee/J	8gg\J
=25	=25	=25	=25	=25	=25	=25	=25	=25	=25	=25	=25	=25	=25	=25	=25	=25
!	!	!	!	!	!	!	!LO:LB:g=original	!	!	!	!	!	!	!	!	!
4d\	.	.	4dd\	.	4ff# 4a 4d/	.	4d\	-lei-	4d\	-e	4a\	-lei-	4ff#\	-e	4dd\	4ff#\
!	!	!	!	!	!	!	!	!	!	!	!	!	!LO:SIC:l:s=e-:v	!	!	!
4A\	.	.	8e/L	.	8cc#L 8e/	.	4A\	.	8A\	e-	8e\L	.	(8cc#\	lei-	4a\	4ee\
!	!	!	!	!	!	!	!	!	!	!	!	!	!LO:SIC:l:s=-lei-:v	!	!	!
.	.	.	8a/J	.	8eeJ 8a/	.	.	.	8A\	-lei-	8g\J	.	8ee\)	.	.	.
!	!	!	!	!	!	!	!	!	!	!	!LO:LB:g=original	!	!	!	!	!
4D\	.	.	4ff# 4a 4d/	.	4ff# 4a 4d/	.	4D\	-son.	4A\	-son	4f#\	-son	4dd\	-son	4dd\	4ff#\
4r	.	.	4r	.	4r	.	4r	.	4r	.	4r	.	4r	.	4r	4r
=26||	=26||	=26||	=26||	=26||	=26||	=26||	=26||	=26||	=26||	=26||	=26||	=26||	=26||	=26||	=26||	=26||
!	!	!	!LO:LB:g=original	!	!	!	!	!	!	!	!	!	!	!	!	!
*k[f#c#g#]	*	*	*k[f#c#g#]	*	*k[f#c#g#]	*	*k[f#c#g#]	*	*k[f#c#g#]	*	*k[f#c#g#]	*	*k[f#c#g#]	*	*k[f#c#g#d#a#]	*k[f#c#g#d#a#]
*M2/4	*	*	*M2/4	*	*M2/4	*	*M2/4	*	*M2/4	*	*M2/4	*	*M2/4	*	*M2/4	*M2/4
!LO:TX:b::t=Christe	!	!	!LO:TX:a::t=Christe	!	!LO:TX:a:t=Christe	!	!LO:TX:a:t=ada: Solo	!	!LO:TX:a:t=Christe Tacet/Kyrie Da Capo	!	!LO:TX:a:t=Solo	!	!LO:TX:a:t=Solo	!	!LO:TX:b:t=Christe Tacet Kyrie Da Capo	!LO:TX:b:t=Christe Tacet Kyrie Da Capo
!LO:TX:a:t=Tardi	!	!	!LO:TX:a:t=Tardiſsime	!	!LO:TX:a:t=Tardiſsime	!	!	!	!	!	!LO:TX:a:t=P:problem:inny układ krzyżyków przy kluczu	!	!LO:TX:a:t=P:problem:inny układ krzyżyków przy kluczu	!	!	!
!	!	!	!	!	!	!	!LO:N:vis=00	!	!	!	!LO:N:vis=00	!	!LO:N:vis=00	!	!	!
4A\	.	.	8cc#\L	.	8aa\L	.	0r	.	2ryy	.	0r	.	0r	.	2ryy	2ryy
.	.	.	16b\L	.	(16gg#\L	.	.	.	.	.	.	.	.	.	.	.
.	.	.	16cc#\JJ	.	16aa\JJ)	.	.	.	.	.	.	.	.	.	.	.
8A\L	.	.	8cc#\L	.	8ee\L	.	.	.	.	.	.	.	.	.	.	.
8E\J	7	.	16dd\L	.	(16ff#\L	.	.	.	.	.	.	.	.	.	.	.
.	.	.	16cc#\JJ	.	16dd\JJ)	.	.	.	.	.	.	.	.	.	.	.
=27	=27	=27	=27	=27	=27	=27	=27	=27	=27	=27	=27	=27	=27	=27	=27	=27
!LO:LB:g=original	!	!	!	!	!	!	!	!	!	!	!	!	!	!	!	!
8r	.	.	(16a\LL	.	(16cc#\LL	.	.	.	2ryy	.	.	.	.	.	2ryy	2ryy
.	.	.	16b\J)	.	16dd\J)	.	.	.	.	.	.	.	.	.	.	.
8A\L	.	.	8cc#\J	.	8ee\J	.	.	.	.	.	.	.	.	.	.	.
8c#\	.	.	16r	.	16r	.	.	.	.	.	.	.	.	.	.	.
.	.	.	16cc#\LL	.	16aa\LL	.	.	.	.	.	.	.	.	.	.	.
8A\J	.	.	16b\	.	16gg#\	.	.	.	.	.	.	.	.	.	.	.
.	.	.	16cc#\JJ	.	16aa\JJ	.	.	.	.	.	.	.	.	.	.	.
=28	=28	=28	=28	=28	=28	=28	=28	=28	=28	=28	=28	=28	=28	=28	=28	=28
8r	.	.	8dd\L	.	16bb\LL	.	.	.	2ryy	.	.	.	.	.	2ryy	2ryy
.	.	.	.	.	16dd\JJ	.	.	.	.	.	.	.	.	.	.	.
8E\L	.	.	8b\	.	24dd\LL	.	.	.	.	.	.	.	.	.	.	.
.	.	.	.	.	24cc#\	.	.	.	.	.	.	.	.	.	.	.
.	.	.	.	.	24dd\JJ	.	.	.	.	.	.	.	.	.	.	.
!	!	!	!	!	!LO:TX:a:t=P:problem:mixed beam	!	!	!	!	!	!	!	!	!	!	!
8G#\	.	.	8b\	.	8e/L	.	.	.	.	.	.	.	.	.	.	.
8E\J	.	.	8b\J	.	8dd\J	.	.	.	.	.	.	.	.	.	.	.
=29	=29	=29	=29	=29	=29	=29	=29	=29	=29	=29	=29	=29	=29	=29	=29	=29
!LO:TX:a:t=P:problem:mixed beam	!	!	!	!	!	!	!	!	!	!	!	!	!	!	!	!
8AA/L	.	.	(16a\LL	.	(16cc#\LL	.	.	.	2ryy	.	.	.	.	.	2ryy	2ryy
.	.	.	16b\J)	.	16dd\J)	.	.	.	.	.	.	.	.	.	.	.
8A\	.	.	8cc#\J	.	8ee\J	.	.	.	.	.	.	.	.	.	.	.
8c#\	.	.	16r	.	16r	.	.	.	.	.	.	.	.	.	.	.
.	.	.	16cc#\LL	.	16aa\LL	.	.	.	.	.	.	.	.	.	.	.
8A\J	.	.	16b\	.	16gg#\	.	.	.	.	.	.	.	.	.	.	.
.	.	.	16cc#\JJ	.	16aa\JJ	.	.	.	.	.	.	.	.	.	.	.
=30	=30	=30	=30	=30	=30	=30	=30	=30	=30	=30	=30	=30	=30	=30	=30	=30
!	!	!	!	!	!	!	!LO:N:vis=00	!	!	!	!LO:N:vis=00	!	!LO:N:vis=00	!	!	!
8r	.	.	8dd\L	.	16bb\LL	.	0r	.	2ryy	.	0r	.	0r	.	2ryy	2ryy
.	.	.	.	.	16dd\JJ	.	.	.	.	.	.	.	.	.	.	.
8E\L	.	.	8b\	.	24dd\LL	.	.	.	.	.	.	.	.	.	.	.
.	.	.	.	.	24cc#\	.	.	.	.	.	.	.	.	.	.	.
.	.	.	.	.	24dd\JJ	.	.	.	.	.	.	.	.	.	.	.
!	!	!	!	!	!LO:TX:a:t=P:problem:mixed beam	!	!	!	!	!	!	!	!	!	!	!
8G#\	.	.	8b\	.	8e/L	.	.	.	.	.	.	.	.	.	.	.
8E\J	.	.	8b\J	.	8dd\J	.	.	.	.	.	.	.	.	.	.	.
=31	=31	=31	=31	=31	=31	=31	=31	=31	=31	=31	=31	=31	=31	=31	=31	=31
!LO:TX:a:t=P:problem:mixed beam	!	!	!	!	!	!	!	!	!	!	!	!	!	!	!	!
8A\L	.	.	16e/LL	.	16cc#\LL	.	.	.	2ryy	.	.	.	.	.	2ryy	2ryy
.	.	.	16d/	.	16b\	.	.	.	.	.	.	.	.	.	.	.
8E\	.	.	16d/	.	16b\	.	.	.	.	.	.	.	.	.	.	.
.	.	.	16c#/JJ	.	16a\JJ	.	.	.	.	.	.	.	.	.	.	.
8AA/J	.	.	8c#/L	.	(16a\LL	.	.	.	.	.	.	.	.	.	.	.
.	.	.	.	.	16cc#\J)	.	.	.	.	.	.	.	.	.	.	.
8r	.	.	(16a/L	.	8ee\J	.	.	.	.	.	.	.	.	.	.	.
.	.	.	16cc#/JJ)	.	.	.	.	.	.	.	.	.	.	.	.	.
=32	=32	=32	=32	=32	=32	=32	=32	=32	=32	=32	=32	=32	=32	=32	=32	=32
*tremolo	*	*	*	*	*	*	*	*	*	*	*	*	*	*	*	*
8A\L	.	.	8cc#\	.	8aa\	.	.	.	2ryy	.	.	.	.	.	2ryy	2ryy
*	*	*	*tuplet	*	*	*	*	*	*	*	*	*	*	*	*	*
8A\	.	.	24ee\LL	.	24ccc#\LL	.	.	.	.	.	.	.	.	.	.	.
.	.	.	24dd\	.	24bb\	.	.	.	.	.	.	.	.	.	.	.
.	.	.	24cc#\JJ	.	24aa\JJ	.	.	.	.	.	.	.	.	.	.	.
8A\	.	.	16r	.	16r	.	.	.	.	.	.	.	.	.	.	.
!	!	!	!	!	!LO:LB:g=original	!	!	!	!	!	!	!	!	!	!	!
.	.	.	16cc#\LL	.	16aa\LL	.	.	.	.	.	.	.	.	.	.	.
8A\J	.	.	16a\	.	16cc#\	.	.	.	.	.	.	.	.	.	.	.
.	.	.	16b\JJ	.	16ee\JJ	.	.	.	.	.	.	.	.	.	.	.
*Xtremolo	*	*	*	*	*	*	*	*	*	*	*	*	*	*	*	*
=33	=33	=33	=33	=33	=33	=33	=33	=33	=33	=33	=33	=33	=33	=33	=33	=33
8A\L	.	.	8cc#\	.	8aa\	.	.	.	2ryy	.	.	.	.	.	2ryy	2ryy
8A\	.	.	24ee\LL	.	24ccc#\LL	.	.	.	.	.	.	.	.	.	.	.
.	.	.	24dd\	.	24bb\	.	.	.	.	.	.	.	.	.	.	.
.	.	.	24cc#\JJ	.	24aa\JJ	.	.	.	.	.	.	.	.	.	.	.
8c#\	.	.	16r	.	16r	.	.	.	.	.	.	.	.	.	.	.
.	.	.	16cc#\LL	.	16aa\LL	.	.	.	.	.	.	.	.	.	.	.
8A\J	.	.	16a\	.	16cc#\	.	.	.	.	.	.	.	.	.	.	.
.	.	.	16b\JJ	.	16ee\JJ	.	.	.	.	.	.	.	.	.	.	.
=34	=34	=34	=34	=34	=34	=34	=34	=34	=34	=34	=34	=34	=34	=34	=34	=34
!	!	!	!	!	!	!	!LO:N:vis=00	!	!	!	!LO:N:vis=00	!	!LO:N:vis=0	!	!	!
4D\	.	.	8dd\L	.	8ff#\L	.	0r	.	2ryy	.	0r	.	1r	.	2ryy	2ryy
.	.	.	16b\L	.	(16dd\L	.	.	.	.	.	.	.	.	.	.	.
.	.	.	16g#\JJ	.	16b\JJ)	.	.	.	.	.	.	.	.	.	.	.
!LO:TX:a:t=P:problem:mixed beam	!	!	!	!	!	!	!	!	!	!	!	!	!	!	!	!
8E\L	.	.	8c#/L	.	8a/L	.	.	.	.	.	.	.	.	.	.	.
8EE/J	.	.	8B/J	.	8g#/J	.	.	.	.	.	.	.	.	.	.	.
=35	=35	=35	=35	=35	=35	=35	=35	=35	=35	=35	=35	=35	=35	=35	=35	=35
!LO:TX:a:t=P:problem:mixed beam	!	!	!	!	!LO:TX:a:t=P:problem:mixed beam	!	!	!	!	!	!	!	!	!	!	!
8A\L	.	.	8c#/L	.	8a/L	.	.	.	2ryy	.	.	.	.	.	2ryy	2ryy
8AA/J	.	.	8e/J	.	16ee\L	.	.	.	.	.	.	.	.	.	.	.
.	.	.	.	.	16cc#\JJ	.	.	.	.	.	.	.	.	.	.	.
!	!	!	!LO:LB:g=original	!	!	!	!	!	!	!	!	!	!	!	!	!
4AA/	.	.	4a/	.	4a/	.	.	.	.	.	.	.	.	.	.	.
=36	=36	=36	=36	=36	=36	=36	=36	=36	=36	=36	=36	=36	=36	=36	=36	=36
4A\	.	.	8cc#\L	.	8aa\L	p	.	.	2ryy	.	.	.	8aa\	Chris-	2ryy	2ryy
!	!	!	!	!LO:DY:t=pia.	!	!	!	!	!	!	!	!	!	!	!	!
.	.	.	(16b\L	p	(16gg#\L	.	.	.	.	.	.	.	16gg#\LL	.	.	.
.	.	.	16cc#\JJ)	.	16aa\JJ)	.	.	.	.	.	.	.	16aa\JJ	.	.	.
8A\L	.	p	8cc#\L	.	8ee\L	.	.	.	.	.	.	.	8ee\L	-te	.	.
!	!	!	!	!	!	!	!	!	!	!	!	!	!LO:SIC:l:s=e-:v	!	!	!
8E\J	7	.	16dd\L	.	(16ff#\L	.	.	.	.	.	.	.	16ff#\L	.	.	.
.	.	.	16b\JJ	.	16dd\JJ)	.	.	.	.	.	.	.	16dd\JJ	.	.	.
=37	=37	=37	=37	=37	=37	=37	=37	=37	=37	=37	=37	=37	=37	=37	=37	=37
8r	.	.	(16a\LL	.	(16cc#\LL	.	.	.	2ryy	.	.	.	16cc#\	lei-	2ryy	2ryy
.	.	.	16b\J)	.	16dd\J)	.	.	.	.	.	.	.	16dd\	.	.	.
8A\L	.	.	8cc#\J	.	8ee\J	.	.	.	.	.	.	.	8ee\	-son	.	.
8c#\	.	.	16r	.	16r	.	.	.	.	.	.	.	4r	.	.	.
.	.	.	16cc#\LL	.	16aa\LL	.	.	.	.	.	.	.	.	.	.	.
8A\J	.	.	16b\	.	16gg#\	.	.	.	.	.	.	.	.	.	.	.
.	.	.	16cc#\JJ	.	16aa\JJ	.	.	.	.	.	.	.	.	.	.	.
=38	=38	=38	=38	=38	=38	=38	=38	=38	=38	=38	=38	=38	=38	=38	=38	=38
!	!	!	!	!	!	!	!LO:N:vis=00	!	!	!	!LO:N:vis=00	!	!LO:LB:g=original	!	!	!
4E\	.	.	8dd\L	.	16bb\LL	.	0r	.	2ryy	.	0r	.	4dd\	Chri-	2ryy	2ryy
.	.	.	.	.	16dd\JJ	.	.	.	.	.	.	.	.	.	.	.
.	.	.	8b\	.	24dd\LL	.	.	.	.	.	.	.	.	.	.	.
.	.	.	.	.	24cc#\	.	.	.	.	.	.	.	.	.	.	.
.	.	.	.	.	24dd\JJ	.	.	.	.	.	.	.	.	.	.	.
!	!	!	!	!	!LO:TX:a:t=P:problem:mixed beam	!	!	!	!	!	!	!	!	!	!	!
8G#\L	.	.	8b\	.	8e/L	.	.	.	.	.	.	.	8dd\	-ste	.	.
8E\J	7	.	8b\J	.	8dd\J	.	.	.	.	.	.	.	8dd\	e-	.	.
=39	=39	=39	=39	=39	=39	=39	=39	=39	=39	=39	=39	=39	=39	=39	=39	=39
!LO:TX:a:t=P:problem:mixed beam	!	!	!	!	!	!	!	!	!	!	!	!	!	!	!	!
8AA/L	.	.	(16a\LL	.	(16cc#\LL	.	.	.	2ryy	.	.	.	16cc#\LL	-lei-	2ryy	2ryy
.	.	.	16b\J)	.	16dd\J)	.	.	.	.	.	.	.	16dd\JJ	.	.	.
8A\	.	.	8cc#\J	.	8ee\J	.	.	.	.	.	.	.	8ee\	-son	.	.
8c#\	.	.	16r	.	16r	.	.	.	.	.	.	.	4r	.	.	.
.	.	.	16cc#\LL	.	16aa\LL	.	.	.	.	.	.	.	.	.	.	.
8A\J	.	.	16b\	.	16gg#\	.	.	.	.	.	.	.	.	.	.	.
.	.	.	16cc#\JJ	.	16aa\JJ	.	.	.	.	.	.	.	.	.	.	.
=40	=40	=40	=40	=40	=40	=40	=40	=40	=40	=40	=40	=40	=40	=40	=40	=40
8r	.	.	8dd\L	.	16bb\LL	.	.	.	2ryy	.	.	.	4dd\	Chri-	2ryy	2ryy
.	.	.	.	.	16dd\JJ	.	.	.	.	.	.	.	.	.	.	.
8E\L	.	.	8b\	.	24dd\LL	.	.	.	.	.	.	.	.	.	.	.
.	.	.	.	.	24cc#\	.	.	.	.	.	.	.	.	.	.	.
.	.	.	.	.	24dd\JJ	.	.	.	.	.	.	.	.	.	.	.
!	!	!	!	!	!LO:TX:a:t=P:problem:mixed beam	!	!	!	!	!	!	!	!	!	!	!
8G#\	.	.	8b\	.	8e/L	.	.	.	.	.	.	.	8dd\	-ste	.	.
8E\J	.	.	8b\J	.	8dd\J	.	.	.	.	.	.	.	8dd\	e-	.	.
=41	=41	=41	=41	=41	=41	=41	=41	=41	=41	=41	=41	=41	=41	=41	=41	=41
!	!	!	!	!	!LO:LB:g=original	!	!	!	!	!	!	!	!	!	!	!
8A\L	.	.	16e/LL	.	16cc#\LL	.	.	.	2ryy	.	.	.	16cc#\LL	-lei-	2ryy	2ryy
.	.	.	16d/	.	(16b\	.	.	.	.	.	.	.	[16b\	.	.	.
8E\J	.	.	16d/	.	16b\)	.	.	.	.	.	.	.	16b\]	.	.	.
.	.	.	16c#/JJ	.	16a\JJ	.	.	.	.	.	.	.	16a\JJ	.	.	.
4AA/	.	.	4c#/	.	4a/	.	.	.	.	.	.	.	4a\	-son	.	.
=42	=42	=42	=42	=42	=42	=42	=42	=42	=42	=42	=42	=42	=42	=42	=42	=42
!	!	!	!	!	!	!LO:DY:t=pia.	!LO:N:vis=00	!	!	!	!	!	!LO:N:vis=00	!	!	!
4E\	.	p	4gg#\	p	4bb\	p	0r	.	2ryy	.	4b\	Chri-	0r	.	2ryy	2ryy
4r	.	.	16ee\LL	.	(16gg#\LL	.	.	.	.	.	(16g#\LL	-ste	.	.	.	.
.	.	.	16ff#\	.	16aa\	.	.	.	.	.	16a\)	.	.	.	.	.
!	!	!	!	!	!	!	!	!	!	!	!LO:SIC:l:s=e-:v	!	!	!	!	!
.	.	.	16gg#\	.	16bb\)	.	.	.	.	.	16b\	.	.	.	.	.
.	.	.	16aa\JJ	.	16ccc#\JJ	.	.	.	.	.	16cc#\JJ	.	.	.	.	.
=43	=43	=43	=43	=43	=43	=43	=43	=43	=43	=43	=43	=43	=43	=43	=43	=43
8r	.	.	8gg#\L	.	8bb\L	.	.	.	2ryy	.	8b\L	lei-	.	.	2ryy	2ryy
8F#\L	.	.	8ff#\	.	8aa\J	.	.	.	.	.	8a\J	.	.	.	.	.
!	!	!	!LO:SIC:s=8dd#:v	!	!	!	!	!	!	!	!	!	!	!	!	!
8D#X\	.	.	8dd\	.	(16aa\LL	.	.	.	.	.	4a\	-son	.	.	.	.
.	.	.	.	.	16ff#\)	.	.	.	.	.	.	.	.	.	.	.
8BB\J	.	.	8b\J	.	(16dd#X\	.	.	.	.	.	.	.	.	.	.	.
.	.	.	.	.	16cc#\JJ)	.	.	.	.	.	.	.	.	.	.	.
=44	=44	=44	=44	=44	=44	=44	=44	=44	=44	=44	=44	=44	=44	=44	=44	=44
!LO:LB:g=original	!	!	!	!	!	!	!	!	!	!	!	!	!	!	!	!
4BB/	7	.	8b\L	.	16b'\LL	.	.	.	2ryy	.	4a\	Chri-	.	.	2ryy	2ryy
.	.	.	.	.	16dd'\	.	.	.	.	.	.	.	.	.	.	.
.	.	.	8dd#X\	.	16ff#'\	.	.	.	.	.	.	.	.	.	.	.
.	.	.	.	.	16gg#'\JJ	.	.	.	.	.	.	.	.	.	.	.
8BB/L	.	.	8b\	.	16aa\LL	.	.	.	.	.	8a\	-ste	.	.	.	.
.	.	.	.	.	(16ff#\	.	.	.	.	.	.	.	.	.	.	.
8BB/J	.	.	8b\J	.	16ee\)	.	.	.	.	.	8a\	e-	.	.	.	.
.	.	.	.	.	16dd\JJ	.	.	.	.	.	.	.	.	.	.	.
=45	=45	=45	=45	=45	=45	=45	=45	=45	=45	=45	=45	=45	=45	=45	=45	=45
!LO:TX:a:t=P:problem:mixed beam	!	!	!	!	!	!	!	!	!	!	!	!	!	!	!	!
8E\L	.	.	8g#/L	.	8ee\L	.	.	.	2ryy	.	8g#\	-lei-	.	.	2ryy	2ryy
8EE/J	.	.	8g#/J	.	8ee\J	.	.	.	.	.	8g#\	-son	.	.	.	.
16E\LL	.	.	16cc#\LL	.	16ee'\LL	.	.	.	.	.	4r	.	.	.	.	.
16D\	.	.	16b\	.	16dd'\	.	.	.	.	.	.	.	.	.	.	.
16C#\	.	.	16a\	.	16cc#'\	.	.	.	.	.	.	.	.	.	.	.
16BB\JJ	.	.	16g#\JJ	.	16b'\JJ	.	.	.	.	.	.	.	.	.	.	.
=46	=46	=46	=46	=46	=46	=46	=46	=46	=46	=46	=46	=46	=46	=46	=46	=46
!LO:TX:a:t=P:problem:mixed beam	!	!	!	!	!	!	!LO:N:vis=00	!	!	!	!	!	!	!	!	!
8AA/L	.	.	8a\L	.	16a\LL	.	0r	.	2ryy	.	8cc#\	Chri-	8aa\	Chris-	2ryy	2ryy
.	.	.	.	.	16aa\	.	.	.	.	.	.	.	.	.	.	.
8A\	.	.	8cc#\J	.	16gg#\	.	.	.	.	.	8cc#\	-ste	16gg#\LL	.	.	.
.	.	.	.	.	16aa\JJ	.	.	.	.	.	.	.	16aa\JJ	.	.	.
8c#\	.	.	8cc#\L	.	8ee\L	.	.	.	.	.	8cc#\	e-	8ee\	-te	.	.
8A\J	.	.	(16dd\L	.	(16ff#\L	.	.	.	.	.	16dd\LL	-lei-	16ff#\LL	e-	.	.
.	.	.	16b\JJ)	.	16dd\JJ)	.	.	.	.	.	16b\JJ	.	16dd\JJ	.	.	.
=47	=47	=47	=47	=47	=47	=47	=47	=47	=47	=47	=47	=47	=47	=47	=47	=47
!	!	!	!LO:LB:g=original	!	!	!	!	!	!	!	!	!	!	!	!	!
8r	.	.	16a\LL	.	(16cc#\LL	.	.	.	2ryy	.	16a\LL	.	16cc#\LL	-lei-	2ryy	2ryy
.	.	.	16b\J	.	16dd\J)	.	.	.	.	.	16b\JJ	.	16dd\JJ	.	.	.
8A\L	.	.	8cc#\J	.	8ee\J	.	.	.	.	.	8cc#\	-son	8ee\	-son	.	.
8c#\	.	.	16r	.	16r	.	.	.	.	.	4r	.	4r	.	.	.
.	.	.	16cc#\LL	.	16aa'\LL	.	.	.	.	.	.	.	.	.	.	.
8A\J	.	.	16b\	.	16gg#'\	.	.	.	.	.	.	.	.	.	.	.
.	.	.	16cc#\JJ	.	16aa'\JJ	.	.	.	.	.	.	.	.	.	.	.
=48	=48	=48	=48	=48	=48	=48	=48	=48	=48	=48	=48	=48	=48	=48	=48	=48
!	!	!	!	!	!	!	!	!	!	!	!LO:LB:g=original	!	!	!	!	!
!	!	!	!LO:TX:a:t=P:problem:mixed beam	!	!	!	!	!	!	!	!	!	!	!	!	!
8r	.	.	8b\L	.	16bb\LL	.	.	.	2ryy	.	8r	.	8r	.	2ryy	2ryy
.	.	.	.	.	16dd\JJ	.	.	.	.	.	.	.	.	.	.	.
8E\L	.	.	8b\	.	24dd\LL	.	.	.	.	.	8b\	Chri-	8dd\	Chri-	.	.
.	.	.	.	.	24cc#\	.	.	.	.	.	.	.	.	.	.	.
.	.	.	.	.	24dd\JJ	.	.	.	.	.	.	.	.	.	.	.
!	!	!	!	!	!LO:TX:a:t=P:problem:mixed beam	!	!	!	!	!	!	!	!	!	!	!
8G#\	.	.	8d/	.	8e/L	.	.	.	.	.	8b\	-ste	8dd\	-ste	.	.
8E\J	.	.	8b\J	.	8dd\J	.	.	.	.	.	8b\	e-	8dd\	e-	.	.
=49	=49	=49	=49	=49	=49	=49	=49	=49	=49	=49	=49	=49	=49	=49	=49	=49
!LO:TX:a:t=P:problem:mixed beam	!	!	!	!	!	!	!	!	!	!	!	!	!	!	!	!
8AA/L	.	.	(16a\LL	.	(16cc#\LL	.	.	.	2ryy	.	16a\LL	-lei-	(16cc#\LL	-lei-	2ryy	2ryy
.	.	.	16b\J)	.	16dd\J)	.	.	.	.	.	16b\JJ	.	16dd\JJ)	.	.	.
8A\	.	.	8cc#\J	.	8ee\J	.	.	.	.	.	8cc#\	-son	8ee\	-son	.	.
8c#\	.	.	16r	.	16r	.	.	.	.	.	4r	.	4r	.	.	.
.	.	.	16cc#\LL	.	16aa\LL	.	.	.	.	.	.	.	.	.	.	.
8A\J	.	.	16b\	.	16gg#\	.	.	.	.	.	.	.	.	.	.	.
.	.	.	16cc#\JJ	.	16aa\JJ	.	.	.	.	.	.	.	.	.	.	.
=50	=50	=50	=50	=50	=50	=50	=50	=50	=50	=50	=50	=50	=50	=50	=50	=50
!	!	!	!	!	!LO:LB:g=original	!	!	!	!	!	!	!	!	!	!	!
8r	.	.	8dd\L	.	16bb\LL	.	2r	.	2ryy	.	8r	.	4dd\	Chri-	2ryy	2ryy
.	.	.	.	.	16dd\JJ	.	.	.	.	.	.	.	.	.	.	.
8E\L	.	.	8b\	.	24dd\LL	.	.	.	.	.	8b\	Chri-	.	.	.	.
.	.	.	.	.	24cc#\	.	.	.	.	.	.	.	.	.	.	.
.	.	.	.	.	24dd\JJ	.	.	.	.	.	.	.	.	.	.	.
!	!	!	!	!	!LO:TX:a:t=P:problem:mixed beam	!	!	!	!	!	!	!	!LO:LB:g=original	!	!	!
8G#\	.	.	8g#\	.	8e/L	.	.	.	.	.	8b\	-ste	8dd\	-ste	.	.
8E\J	.	.	8b\J	.	8dd\J	.	.	.	.	.	8b\	e-	8b\	e-	.	.
=51	=51	=51	=51	=51	=51	=51	=51	=51	=51	=51	=51	=51	=51	=51	=51	=51
4A\	.	.	16e/LL	.	(16cc#\LL	.	4r	.	2ryy	.	(16e\LL	-lei-	(16cc#\LL	-lei-	2ryy	2ryy
.	.	.	16d/J	.	16b\J)	.	.	.	.	.	16d\JJ)	.	16b\JJ)	.	.	.
.	.	.	8c#/J	.	8a\J	.	.	.	.	.	8c#\	-son	8ee\	-son	.	.
4r	.	.	4r	.	4r	.	8e\	Chri-	.	.	4r	.	4r	.	.	.
.	.	.	.	.	.	.	8e\	-ste	.	.	.	.	.	.	.	.
=52	=52	=52	=52	=52	=52	=52	=52	=52	=52	=52	=52	=52	=52	=52	=52	=52
!	!	!	!LO:TX:a:t=P:problem:mixed beam	!	!LO:TX:a:t=P:problem:mixed beam	!	!	!	!	!	!	!	!	!	!	!
8r	.	.	16d/LL	.	16e/LL	.	4E\	Chri-	2ryy	.	4b\	Chri-	4dd\	Chri-	2ryy	2ryy
.	.	.	16b\JJ	.	16dd\JJ	.	.	.	.	.	.	.	.	.	.	.
8E\L	.	.	24b\LL	.	24dd\LL	.	.	.	.	.	.	.	.	.	.	.
.	.	.	24a\	.	24cc#\	.	.	.	.	.	.	.	.	.	.	.
.	.	.	24b\JJ	.	24dd\JJ	.	.	.	.	.	.	.	.	.	.	.
8G#\	.	.	24dd\LL	.	24ff#\LL	.	8E\	-ste	.	.	8b\	-ste	8dd\	-ste	.	.
.	.	.	24cc#\	.	24ee\	.	.	.	.	.	.	.	.	.	.	.
.	.	.	24b\JJ	.	24dd\JJ	.	.	.	.	.	.	.	.	.	.	.
8E\J	.	.	24b\LL	.	24cc#\LL	.	8E\	e-	.	.	8g#\	e-	8b\	e-	.	.
.	.	.	24a\	.	24b\	.	.	.	.	.	.	.	.	.	.	.
.	.	.	24g#X\JJ	.	24a\JJ	.	.	.	.	.	.	.	.	.	.	.
=53	=53	=53	=53	=53	=53	=53	=53	=53	=53	=53	=53	=53	=53	=53	=53	=53
!LO:TX:a:t=P:problem:mixed beam	!	!	!	!	!	!	!	!	!	!	!	!	!	!	!	!
8A\L	.	.	(16a\LL	.	(16cc#\LL	.	8A\	-lei-	2ryy	.	16a\LL	-lei-	16cc#\LL	-lei-	2ryy	2ryy
.	.	.	16b\J)	.	16dd\J)	.	.	.	.	.	16b\JJ	.	16dd\JJ	.	.	.
8AA/J	.	.	8cc#\J	.	8ee\J	.	8A\	-son	.	.	8cc#\	-son	8ee\	-son	.	.
4r	.	.	4r	.	4r	.	8e\	Chri-	.	.	4r	.	4r	.	.	.
.	.	.	.	.	.	.	8e\	-ste	.	.	.	.	.	.	.	.
=54	=54	=54	=54	=54	=54	=54	=54	=54	=54	=54	=54	=54	=54	=54	=54	=54
!	!	!	!	!	!LO:TX:a:t=P:problem:mixed beam	!	!	!	!	!	!	!	!	!	!	!
8r	.	.	16e/LL	.	16e/LL	.	4E\	Chri-	2ryy	.	4b\	Chri-	4dd\	Chri-	2ryy	2ryy
.	.	.	16b/JJ	.	16dd\JJ	.	.	.	.	.	.	.	.	.	.	.
!	!	!	!LO:TUP:b	!	!	!	!	!	!	!	!	!	!	!	!	!
8E\L	.	.	24b/LL	.	24dd\LL	.	.	.	.	.	.	.	.	.	.	.
.	.	.	24a/	.	24cc#\	.	.	.	.	.	.	.	.	.	.	.
.	.	.	24b/JJ	.	24dd\JJ	.	.	.	.	.	.	.	.	.	.	.
8G#\	.	.	24dd\LL	.	24ff#\LL	.	8E\	-ste	.	.	8b\	-ste	8cc#\	-ste	.	.
.	.	.	24cc#\	.	24ee\	.	.	.	.	.	.	.	.	.	.	.
.	.	.	24b\JJ	.	24dd\JJ	.	.	.	.	.	.	.	.	.	.	.
8E\J	.	.	24b\LL	.	24cc#\LL	.	8E\	e-	.	.	8g#\	e-	8b\	e-	.	.
.	.	.	24a\	.	24b\	.	.	.	.	.	.	.	.	.	.	.
.	.	.	24g#\JJ	.	24a\JJ	.	.	.	.	.	.	.	.	.	.	.
=55	=55	=55	=55	=55	=55	=55	=55	=55	=55	=55	=55	=55	=55	=55	=55	=55
4A\	.	.	16e/LL	.	(16cc#\LL	.	8A\	-lei-	2ryy	.	(16e\LL	le-	16cc#\LL	-lei-	2ryy	2ryy
.	.	.	16d/J	.	16b\J)	.	.	.	.	.	16d\JJ)	-i-	16b\JJ	.	.	.
.	.	.	8c#/J	.	8a\J	.	8A\	-son	.	.	8c#\	-son	8a\	-son	.	.
8r	.	.	16r	.	16r	.	4r	.	.	.	4r	.	4r	.	.	.
.	.	.	16c#/LL	.	16e/LL	.	.	.	.	.	.	.	.	.	.	.
8A\	.	.	16e/	.	16a/	.	.	.	.	.	.	.	.	.	.	.
.	.	.	16a/JJ	.	16cc#/JJ	.	.	.	.	.	.	.	.	.	.	.
=56	=56	=56	=56	=56	=56	=56	=56	=56	=56	=56	=56	=56	=56	=56	=56	=56
!	!	!	!LO:LB:g=original	!	!	!	!LO:LB:g=original	!	!	!	!	!	!	!	!	!
*tremolo	*	*	*	*	*	*	*	*	*	*	*	*	*	*	*	*
8E\L	.	.	(16a/LL	.	(16cc#\LL	.	8e\	Chri-	2ryy	.	(16a\LL	Chri-	(16cc#\LL	Chri-	2ryy	2ryy
.	.	.	16g#X/J)	.	16b\J)	.	.	.	.	.	16g#\JJ)	.	16b\JJ)	.	.	.
8E\	.	.	8g#/J	.	8b\J	.	8E\	-ste	.	.	8g#\	-ste	8b\	-ste	.	.
8E\	.	.	16g#/LL	.	16b/LL	.	8r	.	.	.	8r	.	8r	.	.	.
.	.	.	16e/	.	16e/	.	.	.	.	.	.	.	.	.	.	.
8E\J	.	.	16g#/	.	16b/	.	8E\	e-	.	.	8b\	e-	8dd\	e-	.	.
.	.	.	16b/JJ	.	16dd/JJ	.	.	.	.	.	.	.	.	.	.	.
*Xtremolo	*	*	*	*	*	*	*	*	*	*	*	*	*	*	*	*
=57	=57	=57	=57	=57	=57	=57	=57	=57	=57	=57	=57	=57	=57	=57	=57	=57
!	!	!	!	!	!	!	!	!	!	!	!LO:LB:g=original	!	!	!	!	!
4A\	.	.	16b\LL	.	(16dd\LL	.	8A\	-lei-	2ryy	.	(16b\LL	-lei-	(16dd\LL	-lei-	2ryy	2ryy
.	.	.	16a\J	.	16cc#\J)	.	.	.	.	.	16a\JJ)	.	16cc#\JJ)	.	.	.
.	.	.	8a\J	.	8cc#\J	.	8A\	-son	.	.	8a\	-son	8cc#\	-son	.	.
8r	.	.	8r	.	8r	.	8r	.	.	.	8r	.	8r	.	.	.
8A\	.	.	8ee\	.	16aa\LL	.	8A\	e-	.	.	8cc#\	e-	8ee\	e-	.	.
.	.	.	.	.	16ee\JJ	.	.	.	.	.	.	.	.	.	.	.
=58	=58	=58	=58	=58	=58	=58	=58	=58	=58	=58	=58	=58	=58	=58	=58	=58
8B\L	3	.	8dd\L	.	16gg#\LL	.	4E\	-lei-	2ryy	.	4b\	-lei-	4dd\	-lei-	2ryy	2ryy
.	.	.	.	.	16bb\	.	.	.	.	.	.	.	.	.	.	.
8E\	5	.	8b\	.	16dd\	.	.	.	.	.	.	.	.	.	.	.
.	.	.	.	.	16b\JJ	.	.	.	.	.	.	.	.	.	.	.
!	!	!	!	!	!LO:LB:g=original	!	!	!	!	!	!	!	!	!	!	!
8A\	3	.	8cc#\	.	16cc#\LL	.	8E\	-son	.	.	8a\	-son	8cc#\	-son	.	.
.	.	.	.	.	16aa\	.	.	.	.	.	.	.	.	.	.	.
8c#'\J	.	.	8ee\J	.	16ee\	.	8E\	e-	.	.	8cc#\	e-	8ee\	e-	.	.
.	.	.	.	.	16cc#\JJ	.	.	.	.	.	.	.	.	.	.	.
=59	=59	=59	=59	=59	=59	=59	=59	=59	=59	=59	=59	=59	=59	=59	=59	=59
8B\L	.	.	8dd\L	.	16gg#\LL	.	4E\	-lei-	2ryy	.	4b\	-lei-	4dd\	-lei-	2ryy	2ryy
.	.	.	.	.	16bb\	.	.	.	.	.	.	.	.	.	.	.
8E\	.	.	8b\	.	16dd\	.	.	.	.	.	.	.	.	.	.	.
.	.	.	.	.	16b\JJ	.	.	.	.	.	.	.	.	.	.	.
8A\	.	.	8cc#\	.	16cc#\LL	.	8E\	-son	.	.	8a\L	.	8cc#\	-son	.	.
.	.	.	.	.	16aa\	.	.	.	.	.	.	.	.	.	.	.
8c#\J	.	.	8a\J	.	16ee\	.	8E\	Chri-	.	.	8cc#\J	.	8ee\	e-	.	.
.	.	.	.	.	16cc#\JJ	.	.	.	.	.	.	.	.	.	.	.
=60	=60	=60	=60	=60	=60	=60	=60	=60	=60	=60	=60	=60	=60	=60	=60	=60
4d\	.	.	16b\LL	.	16dd\LL	.	8D\	-ste	2ryy	.	16b\LL	.	16dd\LL	-lei-	2ryy	2ryy
.	.	.	16dd\	.	[16ff#\	.	.	.	.	.	[16dd\	.	[16ff#\	.	.	.
.	.	.	16dd\	.	16ff#\]	.	8r	.	.	.	16dd\]	.	16ff#\]	.	.	.
.	.	.	16cc#\JJ	.	16ee\JJ	.	.	.	.	.	16cc#\JJ	.	16ee\JJ	.	.	.
8r	.	.	16cc#\LL	.	16ee\LL	.	8r	.	.	.	16cc#\LL	.	16ee\LL	.	.	.
.	.	.	16b\	.	[16dd\	.	.	.	.	.	[16b\	.	[16dd\	.	.	.
8D#X\	.	.	16b\	.	16dd\]	.	8D#X\	e-	.	.	16b\]	.	16dd\]	.	.	.
.	.	.	16a\JJ	.	16cc#\JJ	.	.	.	.	.	16a\JJ	.	16cc#\JJ	.	.	.
=61	=61	=61	=61	=61	=61	=61	=61	=61	=61	=61	=61	=61	=61	=61	=61	=61
!LO:LB:g=original	!	!	!	!	!	!	!	!	!	!	!	!	!	!	!	!
8E\L	6	.	8a/L	.	(8cc#\L	.	4E\	-lei-	2ryy	.	(8a\L	.	8cc#\L	.	2ryy	2ryy
8E\J	5	.	8g#/J	.	8b\J)	.	.	.	.	.	8g#\J)	.	8b\J	.	.	.
4E\	.	.	4g#/	.	4b\	.	4E\	-son	.	.	4g#\	-son	4b\	-son	.	.
=62	=62	=62	=62	=62	=62	=62	=62	=62	=62	=62	=62	=62	=62	=62	=62	=62
4E\	7	.	8b/L	.	8dd\L	.	4E\	Chri-	2ryy	.	8b\L	Chri-	8dd\L	Chri-	2ryy	2ryy
.	.	.	16g#/L	.	(16b\L	.	.	.	.	.	(16g#\L	.	(16b\L	.	.	.
.	.	.	16a/JJ	.	16cc#\JJ)	.	.	.	.	.	16a\JJ)	.	16cc#\JJ)	.	.	.
!	!	!	!	!	!LO:TX:a:t=P:problem:mixed beam	!	!	!	!	!	!	!	!	!	!	!
8G#\L	.	.	8b/L	.	16dd\LL	.	8E\	-ste	.	.	8b\	-ste	8dd\	-ste	.	.
.	.	.	.	.	(16e/	.	.	.	.	.	.	.	.	.	.	.
8E\J	.	.	8b/J	.	16g#/)	.	8E\	e-	.	.	8b\	e-	8dd\	e-	.	.
.	.	.	.	.	16b/JJ	.	.	.	.	.	.	.	.	.	.	.
=63	=63	=63	=63	=63	=63	=63	=63	=63	=63	=63	=63	=63	=63	=63	=63	=63
!LO:TX:a:t=P:problem:mixed beam	!	!	!	!	!	!	!	!	!	!	!	!	!	!	!	!
8A\L	.	.	8a/L	.	(16cc#\LL	.	8A\	-lei-	2ryy	.	8a\	-lei-	8cc#\	-lei-	2ryy	2ryy
.	.	.	.	.	16a\)	.	.	.	.	.	.	.	.	.	.	.
8AA/J	.	.	8a/J	.	(16ee\	.	8A\	-son	.	.	8cc#\	-son	8ee\	-son	.	.
.	.	.	.	.	16cc#\JJ)	.	.	.	.	.	.	.	.	.	.	.
4r	.	.	4r	.	24aa\LL	.	4r	.	.	.	4r	.	4r	.	.	.
.	.	.	.	.	24gg#\	.	.	.	.	.	.	.	.	.	.	.
.	.	.	.	.	24ff#\JJ	.	.	.	.	.	.	.	.	.	.	.
.	.	.	.	.	24ee\LL	.	.	.	.	.	.	.	.	.	.	.
.	.	.	.	.	24dd\	.	.	.	.	.	.	.	.	.	.	.
.	.	.	.	.	24cc#\JJ	.	.	.	.	.	.	.	.	.	.	.
=64	=64	=64	=64	=64	=64	=64	=64	=64	=64	=64	=64	=64	=64	=64	=64	=64
4E\	.	.	8b/L	.	8dd\L	.	4E\	Chri-	2ryy	.	8b\L	Chri-	8dd\L	Chris-	2ryy	2ryy
.	.	.	(16g#/L	.	(16b\L	.	.	.	.	.	16g#\L	.	(16b\L	.	.	.
.	.	.	16a/JJ)	.	16cc#\JJ)	.	.	.	.	.	16a\JJ	.	16cc#\JJ)	.	.	.
!	!	!	!	!	!LO:TX:a:t=P:problem:mixed beam	!	!	!	!	!	!	!	!	!	!	!
8G#\L	.	.	8b/L	.	16dd\LL	.	8E\	-ste	.	.	8b\	-ste	8dd\	-te	.	.
.	.	.	.	.	16e/	.	.	.	.	.	.	.	.	.	.	.
8E\J	.	.	8b/J	.	16g#/	.	8E\	e-	.	.	8b\	e-	8dd\	e-	.	.
.	.	.	.	.	16b/JJ	.	.	.	.	.	.	.	.	.	.	.
=65	=65	=65	=65	=65	=65	=65	=65	=65	=65	=65	=65	=65	=65	=65	=65	=65
!	!	!	!	!	!	!	!LO:LB:g=original	!	!	!	!	!	!	!	!	!
!LO:TX:a:t=P:problem:mixed beam	!	!	!	!	!	!	!	!	!	!	!	!	!	!	!	!
8A\L	.	.	8a/L	.	(16cc#\LL	.	8A\	-lei-	2ryy	.	8a\	-lei-	8cc#\	-lei-	2ryy	2ryy
.	.	.	.	.	16a\)	.	.	.	.	.	.	.	.	.	.	.
8AA/J	.	.	8cc#/J	.	(16ee\	.	8A\	-son	.	.	8cc#\	-son	8ee\	-son	.	.
.	.	.	.	.	16cc#\JJ)	.	.	.	.	.	.	.	.	.	.	.
4r	.	.	4r	.	24aa\LL	.	4r	.	.	.	4r	.	4r	.	.	.
.	.	.	.	.	24ee\	.	.	.	.	.	.	.	.	.	.	.
.	.	.	.	.	24dd\JJ	.	.	.	.	.	.	.	.	.	.	.
.	.	.	.	.	24cc#\LL	.	.	.	.	.	.	.	.	.	.	.
.	.	.	.	.	24b\	.	.	.	.	.	.	.	.	.	.	.
.	.	.	.	.	24a\JJ	.	.	.	.	.	.	.	.	.	.	.
=66	=66	=66	=66	=66	=66	=66	=66	=66	=66	=66	=66	=66	=66	=66	=66	=66
*tremolo	*	*	*tremolo	*	*	*	*	*	*	*	*	*	*	*	*	*
*	*	*	*2\right	*	*	*	*	*	*	*	*	*	*	*	*	*
!	!	!	!	!	!LO:TX:a:t=P:problem:mixed beam	!	!	!	!	!	!	!	!	!	!	!
8D\L	.	.	8dd\L	.	16d/LL	.	4r	.	2ryy	.	4dd\	Chri-	4ff#\	Chri-	2ryy	2ryy
.	.	.	.	.	16ff#\JJ	.	.	.	.	.	.	.	.	.	.	.
8D\	.	.	8dd\	.	24ff#\LL	.	.	.	.	.	.	.	.	.	.	.
.	.	.	.	.	24ee\	.	.	.	.	.	.	.	.	.	.	.
.	.	.	.	.	24ff#\JJ	.	.	.	.	.	.	.	.	.	.	.
8D\	.	.	8dd\	.	16r	.	8d\	Chri-	.	.	4dd\	-ste	4ff#\	-ste	.	.
.	.	.	.	.	16ff#'\LL	.	.	.	.	.	.	.	.	.	.	.
8D\J	.	.	8dd\J	.	16aa'\	.	8D\	-ste	.	.	.	.	.	.	.	.
.	.	.	.	.	16ff#'\JJ	.	.	.	.	.	.	.	.	.	.	.
=67	=67	=67	=67	=67	=67	=67	=67	=67	=67	=67	=67	=67	=67	=67	=67	=67
!	!	!	!	!	!LO:TX:a:t=P:problem:mixed beam	!	!	!	!	!	!	!	!	!	!	!
*	*	*	*	*	*	*	*	*	*	*	*	*ij	*	*ij	*	*
8AA/L	.	.	8cc#\L	.	16c#/LL	.	4r	.	2ryy	.	4cc#\	Chri-	4ee\	Chri-	2ryy	2ryy
.	.	.	.	.	16ee\JJ	.	.	.	.	.	.	.	.	.	.	.
8AA/	.	.	8cc#\	.	24ee\LL	.	.	.	.	.	.	.	.	.	.	.
.	.	.	.	.	24dd\	.	.	.	.	.	.	.	.	.	.	.
.	.	.	.	.	24ee\JJ	.	.	.	.	.	.	.	.	.	.	.
*	*	*	*	*	*	*	*	*ij	*	*	*	*	*	*	*	*
8AA/	.	.	8cc#\	.	16r	.	8A\	Chri-	.	.	4cc#\	-ste	4ee\	-ste	.	.
*	*	*	*	*	*	*	*	*	*	*	*	*Xij	*	*	*	*
.	.	.	.	.	16ee\LL	.	.	.	.	.	.	.	.	.	.	.
8AA/J	.	.	8cc#\J	.	16aa\	.	8AA/	-ste	.	.	.	.	.	.	.	.
*	*	*	*	*	*	*	*	*Xij	*	*	*	*	*	*	*	*
.	.	.	.	.	16ee\JJ	.	.	.	.	.	.	.	.	.	.	.
=68	=68	=68	=68	=68	=68	=68	=68	=68	=68	=68	=68	=68	=68	=68	=68	=68
!	!	!	!	!	!	!	!	!	!	!	!LO:LB:g=original	!	!	!	!	!
!	!	!	!	!	!LO:TX:a:t=P:problem:mixed beam	!	!	!	!	!	!	!	!	!	!	!
8E\L	.	.	8b\L	.	16B/LL	.	8e\	Chri-	2ryy	.	8b\	Chri-	8dd\	Chri-	2ryy	2ryy
.	.	.	.	.	16dd\JJ	.	.	.	.	.	.	.	.	.	.	.
8E\	.	.	8b\	.	24dd\LL	.	8E\	-ste	.	.	8b\	-ste	8dd\	-ste	.	.
*	*	*	*	*	*	*	*	*	*	*	*	*	*	*Xij	*	*
.	.	.	.	.	24cc#\	.	.	.	.	.	.	.	.	.	.	.
.	.	.	.	.	24dd\JJ	.	.	.	.	.	.	.	.	.	.	.
8E\	.	.	8b\	.	16r	.	8r	.	.	.	8r	.	8r	.	.	.
.	.	.	.	.	16dd\LL	.	.	.	.	.	.	.	.	.	.	.
8E\J	.	.	8b\J	.	16bb\	.	8E\	e-	.	.	8b\	e-	8dd\	e-	.	.
.	.	.	.	.	16dd\JJ	.	.	.	.	.	.	.	.	.	.	.
*Xtremolo	*	*	*	*	*	*	*	*	*	*	*	*	*	*	*	*
=69	=69	=69	=69	=69	=69	=69	=69	=69	=69	=69	=69	=69	=69	=69	=69	=69
8E\L	7	.	8b\L	.	8dd\L	.	8D\	-lei-	2ryy	.	8b\	-lei-	8dd\	-lei-	2ryy	2ryy
8A\J	.	.	8a\J	.	8cc#\J	.	8A\	-son	.	.	8a\	-son	8cc#\	-son	.	.
4r	.	.	4r	.	4r	.	8e\	Chri-	.	.	4r	.	4r	.	.	.
.	.	.	.	.	.	.	8e\	-ste	.	.	.	.	.	.	.	.
=70	=70	=70	=70	=70	=70	=70	=70	=70	=70	=70	=70	=70	=70	=70	=70	=70
!	!	!	!	!	!LO:TX:a:t=P:problem:mixed beam	!	!	!	!	!	!	!	!	!	!	!
8r	.	.	8e/L	.	16e/LL	.	4E\	Chri-	2ryy	.	8r	.	8r	.	2ryy	2ryy
.	.	.	.	.	16dd\JJ	.	.	.	.	.	.	.	.	.	.	.
8E\L	.	.	8e/	.	24dd\LL	.	.	.	.	.	8b\	Chri-	8dd\	Chri-	.	.
.	.	.	.	.	24cc#\	.	.	.	.	.	.	.	.	.	.	.
.	.	.	.	.	24dd\JJ	.	.	.	.	.	.	.	.	.	.	.
!	!	!	!	!	!	!	!	!	!	!	!	!	!LO:LB:g=original	!	!	!
8G#X\	.	.	8e/	.	24ff#\LL	.	8E\	-ste	.	.	8b\	-ste	8dd\	-ste	.	.
.	.	.	.	.	24ee\	.	.	.	.	.	.	.	.	.	.	.
.	.	.	.	.	24dd\JJ	.	.	.	.	.	.	.	.	.	.	.
8E\J	.	.	8e/J	.	24dd\LL	.	8E\	e-	.	.	8b\	e-	8dd\	e-	.	.
.	.	.	.	.	24cc#\	.	.	.	.	.	.	.	.	.	.	.
.	.	.	.	.	24b\JJ	.	.	.	.	.	.	.	.	.	.	.
=71	=71	=71	=71	=71	=71	=71	=71	=71	=71	=71	=71	=71	=71	=71	=71	=71
!LO:TX:a:t=P:problem:mixed beam	!	!	!	!	!	!	!	!	!	!	!	!	!	!	!	!
8A\L	.	.	16a/LL	.	(16cc#\LL	.	8A\	-lei-	2ryy	.	16a\LL	-lei-	(16cc#\LL	-lei-	2ryy	2ryy
.	.	.	16b/J	.	16dd\J)	.	.	.	.	.	16b\JJ	.	16dd\JJ)	.	.	.
8AA/J	.	.	8cc#/J	.	8ee\J	.	8AA/	-son	.	.	8cc#\	-son	8ee\	-son	.	.
4r	.	.	4r	.	4r	.	8e\	Chri-	.	.	4r	.	4r	.	.	.
.	.	.	.	.	.	.	8e\	-ste	.	.	.	.	.	.	.	.
=72	=72	=72	=72	=72	=72	=72	=72	=72	=72	=72	=72	=72	=72	=72	=72	=72
!	!	!	!	!	!LO:TX:a:t=P:problem:mixed beam	!	!	!	!	!	!	!	!	!	!	!
8r	.	.	8e/L	.	16e/LL	.	4E\	Chri-	2ryy	.	8r	.	8r	.	2ryy	2ryy
.	.	.	.	.	16dd\JJ	.	.	.	.	.	.	.	.	.	.	.
8E\L	.	.	8e/	.	24dd\LL	.	.	.	.	.	8b\	Chri-	8dd\	Chri-	.	.
.	.	.	.	.	24cc#\	.	.	.	.	.	.	.	.	.	.	.
.	.	.	.	.	24dd\JJ	.	.	.	.	.	.	.	.	.	.	.
8G#\	.	.	8e/	.	24ff#\LL	.	8E\	-ste	.	.	8b\	-ste	8dd\	-ste	.	.
.	.	.	.	.	24ee\	.	.	.	.	.	.	.	.	.	.	.
.	.	.	.	.	24dd\JJ	.	.	.	.	.	.	.	.	.	.	.
8E\J	.	.	8e/J	.	24dd\LL	.	8E\	e-	.	.	8b\	e-	8dd\	e-	.	.
.	.	.	.	.	24cc#\	.	.	.	.	.	.	.	.	.	.	.
.	.	.	.	.	24b\JJ	.	.	.	.	.	.	.	.	.	.	.
*	*	*	*Xtremolo	*	*	*	*	*	*	*	*	*	*	*	*	*
=73	=73	=73	=73	=73	=73	=73	=73	=73	=73	=73	=73	=73	=73	=73	=73	=73
!LO:TX:a:t=P:problem:mixed beam	!	!	!LO:TUP:b	!	!	!	!	!	!	!	!	!	!	!	!	!
8A\L	.	.	24e/LL	.	24cc#\LL	.	4A\	-lei-	2ryy	.	4a\	-lei-	(8cc#\L	-lei-	2ryy	2ryy
.	.	.	24d/	.	24b\	.	.	.	.	.	.	.	.	.	.	.
.	.	.	24c#/JJ	.	24a\JJ	.	.	.	.	.	.	.	.	.	.	.
8AA/J	.	.	16c#/LL	.	16a\LL	.	.	.	.	.	.	.	8a\J)	.	.	.
.	.	.	16c#/JJ	.	16a\JJ	.	.	.	.	.	.	.	.	.	.	.
4r	.	.	4c#/	.	4a\	.	4AA/	-son	.	.	4a\	-son	4a\	-son	.	.
=74	=74	=74	=74	=74	=74	=74	=74	=74	=74	=74	=74	=74	=74	=74	=74	=74
!	!	!	!	!	!	!	!LO:LB:g=original	!	!	!	!	!	!	!	!	!
!	!	!	!	!	!	!	!LO:N:vis=00	!	!	!	!	!	!LO:N:vis=00	!	!	!
8r	.	.	4gg#\	p	4bb\	.	0r	.	2ryy	.	4b\	Chri-	0r	.	2ryy	2ryy
8E\L	.	.	.	.	.	.	.	.	.	.	.	.	.	.	.	.
8G#X\	.	.	16ee\LL	.	(16gg#\LL	.	.	.	.	.	(16g#\LL	-ste	.	.	.	.
.	.	.	16ff#\	.	16aa\	.	.	.	.	.	16a\JJ)	.	.	.	.	.
8E\J	.	.	16gg#\	.	16bb\)	.	.	.	.	.	(16b\LL	e-	.	.	.	.
.	.	.	16aa\JJ	.	16ccc#\JJ	.	.	.	.	.	16cc#\JJ)	.	.	.	.	.
=75	=75	=75	=75	=75	=75	=75	=75	=75	=75	=75	=75	=75	=75	=75	=75	=75
!	!	!	!	!	!LO:LB:g=original	!	!	!	!	!	!	!	!	!	!	!
4B\	#	.	(16gg#\LL	.	(16bb\LL	.	.	.	2ryy	.	16b\LL	-lei-	.	.	2ryy	2ryy
.	.	.	16ff#\J)	.	16aa\J)	.	.	.	.	.	16a\JJ	.	.	.	.	.
.	.	.	8ff#\J	.	8aa\J	.	.	.	.	.	8a\	-son	.	.	.	.
4BB/	.	.	8dd#X\L	.	16aa\LL	.	.	.	.	.	4r	.	.	.	.	.
.	.	.	.	.	(16ff#\	.	.	.	.	.	.	.	.	.	.	.
.	.	.	8b\J	.	16dd#X\)	.	.	.	.	.	.	.	.	.	.	.
.	.	.	.	.	16cc#\JJ	.	.	.	.	.	.	.	.	.	.	.
=76	=76	=76	=76	=76	=76	=76	=76	=76	=76	=76	=76	=76	=76	=76	=76	=76
8r	.	.	8b\L	.	16b\LL	.	.	.	2ryy	.	4a\	Chri-	.	.	2ryy	2ryy
.	.	.	.	.	(16dd#X\	.	.	.	.	.	.	.	.	.	.	.
!	!	!	!LO:SIC:s=8d#:v	!	!	!	!	!	!	!	!	!	!	!	!	!
8BB/L	.	.	8dd\	.	16ff#\)	.	.	.	.	.	.	.	.	.	.	.
.	.	.	.	.	16gg#\JJ	.	.	.	.	.	.	.	.	.	.	.
!	!	!	!LO:SIC:s=8d#:v	!	!	!	!	!	!	!	!	!	!	!	!	!
8D#X/	.	.	8dd\	.	16aa\LL	.	.	.	.	.	8a\	-ste	.	.	.	.
.	.	.	.	.	(16ff#\	.	.	.	.	.	.	.	.	.	.	.
!	!	!	!LO:SIC:s=8d#:v	!	!	!	!	!	!	!	!	!	!	!	!	!
8BB/J	.	.	8dd\J	.	16ee\)	.	.	.	.	.	8a\	e-	.	.	.	.
.	.	.	.	.	16dd#\JJ	.	.	.	.	.	.	.	.	.	.	.
=77	=77	=77	=77	=77	=77	=77	=77	=77	=77	=77	=77	=77	=77	=77	=77	=77
!	!	!	!LO:TX:a:t=P:problem:mixed beam	!	!	!	!	!	!	!	!	!	!	!	!	!
4E\	.	.	8ee\L	.	8ee\L	.	.	.	2ryy	.	8a\	-lei-	.	.	2ryy	2ryy
.	.	.	8g#/J	.	8ee\J	.	.	.	.	.	8a\	-son	.	.	.	.
!	!	!	!	!	!	!	!	!	!	!	!LO:LB:g=original	!	!	!	!	!
4EE/	.	.	16cc#\LL	.	16ee\LL	.	.	.	.	.	4r	.	.	.	.	.
.	.	.	16b\	.	(16ddn\	.	.	.	.	.	.	.	.	.	.	.
.	.	.	16a\	.	16cc#\)	.	.	.	.	.	.	.	.	.	.	.
.	.	.	16g#\JJ	.	16b\JJ	.	.	.	.	.	.	.	.	.	.	.
=78	=78	=78	=78	=78	=78	=78	=78	=78	=78	=78	=78	=78	=78	=78	=78	=78
4A\	.	.	8a\L	.	8ee\L	.	4A\	Chri-	2ryy	.	4cc#\	Chri-	8ee\	Chri-	2ryy	2ryy
.	.	.	16a\L	.	(16cc#\L	.	.	.	.	.	.	.	16cc#\LL	-ste	.	.
.	.	.	16b\JJ	.	16dd\JJ)	.	.	.	.	.	.	.	16dd\JJ	.	.	.
8r	.	.	8cc#\L	.	8ee\L	.	8A\	-ste	.	.	16a\LL	-ste	(8ee\L	e-	.	.
.	.	.	.	.	.	.	.	.	.	.	16b\JJ	.	.	.	.	.
8A\	.	.	8dd\J	.	8ff#\J	.	8A\	e-	.	.	16cc#\LL	e-	8ff#\J)	.	.	.
.	.	.	.	.	.	.	.	.	.	.	16dd\JJ	.	.	.	.	.
=79	=79	=79	=79	=79	=79	=79	=79	=79	=79	=79	=79	=79	=79	=79	=79	=79
4E\	.	.	(16cc#\LL	.	(16ee\LL	.	8e\	-lei-	2ryy	.	16ee\LL	-lei-	(16ee\LL	-lei-	2ryy	2ryy
.	.	.	16b\J)	.	16dd\J)	.	.	.	.	.	16dd\JJ	.	16dd\JJ)	.	.	.
.	.	.	8b\J	.	8dd\J	.	8E\	-son	.	.	8b\	-son	8dd\	-son	.	.
!	!	!	!	!	!LO:TX:a:t=P:problem:mixed beam	!	!	!	!	!	!	!	!	!	!	!
4E\	.	.	16b\LL	.	16dd\LL	.	4r	.	.	.	8r	.	4r	.	.	.
.	.	.	16g#\J	.	(16e/	.	.	.	.	.	.	.	.	.	.	.
.	.	.	8a\J	.	16b/	.	.	.	.	.	8r	.	.	.	.	.
.	.	.	.	.	16cc#/JJ)	.	.	.	.	.	.	.	.	.	.	.
=80	=80	=80	=80	=80	=80	=80	=80	=80	=80	=80	=80	=80	=80	=80	=80	=80
!LO:LB:g=original	!	!	!	!	!	!	!	!	!	!	!	!	!	!	!	!
4E\	.	.	(16b\LL	.	8dd\L	.	4E\	Chri-	2ryy	.	8b\	Chri-	8dd\	Chri-	2ryy	2ryy
.	.	.	16g#\J	.	.	.	.	.	.	.	.	.	.	.	.	.
.	.	.	8a\J)	.	(16b\L	.	.	.	.	.	16g#\LL	-ste	(16b\LL	-ste	.	.
.	.	.	.	.	16cc#\JJ)	.	.	.	.	.	16a\JJ	.	16cc#\JJ)	.	.	.
8r	.	.	(16b\LL	.	8dd\L	.	8E\	-ste	.	.	8r	.	8r	.	.	.
.	.	.	16cc#\J)	.	.	.	.	.	.	.	.	.	.	.	.	.
8E\	.	.	8b\J	.	(16ee\L	.	8E\	e-	.	.	8b\	e-	8dd\	e-	.	.
.	.	.	.	.	16dd\JJ)	.	.	.	.	.	.	.	.	.	.	.
=81	=81	=81	=81	=81	=81	=81	=81	=81	=81	=81	=81	=81	=81	=81	=81	=81
8E\L	.	.	8b/L	.	8dd\L	.	8E\	-lei-	2ryy	.	8b\	-lei-	8dd\	-lei-	2ryy	2ryy
8A\J	.	.	8a/	.	8cc#\J	.	8A\	-son	.	.	8a\	-son	8cc#\	-son	.	.
4A\	.	.	8e/	.	16a/LL	.	8r	.	.	.	8r	.	8r	.	.	.
.	.	.	.	.	(16e/	.	.	.	.	.	.	.	.	.	.	.
.	.	.	8e/J	.	16a/	.	8A\	e-	.	.	8a\	e-	8cc#\	e-	.	.
.	.	.	.	.	16cc#/JJ)	.	.	.	.	.	.	.	.	.	.	.
=82	=82	=82	=82	=82	=82	=82	=82	=82	=82	=82	=82	=82	=82	=82	=82	=82
*	*	*	*tremolo	*	*	*	*	*	*	*	*	*	*	*	*	*
8E\L	7_	.	8e/L	.	(16cc#\LL	.	8e\	-lei-	2ryy	.	16a\LL	-lei-	16cc#\LL	-lei-	2ryy	2ryy
.	.	.	.	.	16b\J)	.	.	.	.	.	16g#\JJ	.	16b\JJ	.	.	.
8E\	.	.	8e/	.	8b\J	.	8E\	-son	.	.	8g#\	-son	8b\	-son	.	.
8E\	.	.	8e/	.	16b/LL	.	8r	.	.	.	8r	.	8r	.	.	.
.	.	.	.	.	(16e/	.	.	.	.	.	.	.	.	.	.	.
8E\J	.	.	8e/J	.	16b/	.	8E\	e-	.	.	8b\	e-	8dd\	e-	.	.
.	X	.	.	.	16dd/JJ)	.	.	.	.	.	.	.	.	.	.	.
=83	=83	=83	=83	=83	=83	=83	=83	=83	=83	=83	=83	=83	=83	=83	=83	=83
*tremolo	*	*	*	*	*	*	*	*	*	*	*	*	*	*	*	*
8A\L	.	.	8e/L	.	(16dd\LL	.	8A\L	-lei-	2ryy	.	(16b\LL	-lei-	(16dd\LL	-lei-	2ryy	2ryy
.	.	.	.	.	16cc#\J)	.	.	.	.	.	16a\JJ)	.	16cc#\JJ)	.	.	.
!	!	!	!	!	!	!	!LO:TX:a:t=P:problem:mixed beam	!	!	!	!	!	!	!	!	!
8A\	.	.	8e/	.	8cc#\J	.	8AA/J	-son	.	.	8a\	-son	8cc#\	-son	.	.
8A\	.	.	8e/	.	16r	.	8r	.	.	.	8r	.	8r	.	.	.
.	.	.	.	.	16aa\LL	.	.	.	.	.	.	.	.	.	.	.
8A\J	.	.	8e/J	.	16ee\	.	8A\	e-	.	.	8cc#\	e-	8ee\	e-	.	.
.	.	.	.	.	16cc#\JJ	.	.	.	.	.	.	.	.	.	.	.
*Xtremolo	*	*	*	*	*	*	*	*	*	*	*	*	*	*	*	*
=84	=84	=84	=84	=84	=84	=84	=84	=84	=84	=84	=84	=84	=84	=84	=84	=84
8B\L	3	.	8e/L	.	(16dd\LL	.	(8G#\L	-lei-	2ryy	.	8b\L	-lei-	8dd\L	-lei-	2ryy	2ryy
.	.	.	.	.	16bb\)	.	.	.	.	.	.	.	.	.	.	.
8E\	5	.	8e/	.	16dd\	.	8E\J)	.	.	.	8g#\J	.	8b\J	.	.	.
.	.	.	.	.	16b\JJ	.	.	.	.	.	.	.	.	.	.	.
8A\	.	.	8e/	.	16cc#\LL	.	8A\	-son	.	.	8a\	.	8cc#\	-son	.	.
.	.	.	.	.	(16aa\	.	.	.	.	.	.	.	.	.	.	.
8c#\J	.	.	8e/J	.	16ee\)	.	8e\	e-	.	.	8cc#\	-son	8ee\	e-	.	.
.	.	.	.	.	16cc#\JJ	.	.	.	.	.	.	.	.	.	.	.
=85	=85	=85	=85	=85	=85	=85	=85	=85	=85	=85	=85	=85	=85	=85	=85	=85
!	!	!	!	!	!LO:LB:g=original	!	!	!	!	!	!	!	!	!	!	!
8B\L	3	.	8e/L	.	16dd\LL	.	4E\	-lei-	2ryy	.	8dd\L	e-	(8dd\L	-lei-	2ryy	2ryy
.	.	.	.	.	(16bb\	.	.	.	.	.	.	.	.	.	.	.
8E\	5	.	8e/	.	16dd\)	.	.	.	.	.	8g#\J	.	8b\J)	.	.	.
.	.	.	.	.	16b\JJ	.	.	.	.	.	.	.	.	.	.	.
8A\	.	.	8e/	.	16cc#\LL	.	8A\	-son	.	.	8a\L	-lei-	8cc#\	-son	.	.
.	.	.	.	.	16aa\	.	.	.	.	.	.	.	.	.	.	.
8c#\J	3	.	8e/J	.	(16ee\	.	8e\	e-	.	.	8cc#\J	-son	8ee\	e-	.	.
.	.	.	.	.	16cc#\JJ)	.	.	.	.	.	.	.	.	.	.	.
*	*	*	*Xtremolo	*	*	*	*	*	*	*	*	*	*	*	*	*
=86	=86	=86	=86	=86	=86	=86	=86	=86	=86	=86	=86	=86	=86	=86	=86	=86
!	!	!	!	!	!	!	!LO:LB:g=original	!	!	!	!	!	!	!	!	!
4d\	.	.	8dd\L	.	8ff#\L	.	4d\	-lei-	2ryy	.	8dd\L	e-	8ff#\L	-lei-	2ryy	2ryy
.	.	.	16cc#\L	.	(16ee\L	.	.	.	.	.	(16cc#\L	.	16ee\L	.	.	.
.	.	.	16b\JJ	.	16dd\JJ)	.	.	.	.	.	16b\JJ)	.	16dd\JJ	.	.	.
!	!	!	!	!	!	!	!	!	!	!	!LO:LB:g=original	!	!	!	!	!
4e\	.	.	8a/L	.	8cc#\L	.	4e\	.	.	.	8a\L	-lei-	8cc#\L	.	.	.
.	.	.	8g#/J	.	8b\J	.	.	.	.	.	8g#\J	.	8b\J	.	.	.
=87	=87	=87	=87	=87	=87	=87	=87	=87	=87	=87	=87	=87	=87	=87	=87	=87
4A\	.	.	8a\L	.	8a\L	.	4A\	-son	2ryy	.	4a\	-son	4a\	-son	2ryy	2ryy
.	.	.	16b\L	.	(16gg#\L	f	.	.	.	.	.	.	.	.	.	.
.	.	.	16cc#\JJ	f	16aa\JJ)	.	.	.	.	.	.	.	.	.	.	.
!	!	!	!	!	!	!	!	!	!	!	!LO:TX:b:t=Da Capo kyrie	!	!	!	!	!
8A\L	.	.	8cc#\L	.	8ee\L	.	4r	.	.	.	4r	.	4r	.	.	.
8E\J	7	.	16dd\L	.	(16ff#\L	.	.	.	.	.	.	.	.	.	.	.
.	.	.	16b\JJ	.	16dd\JJ)	.	.	.	.	.	.	.	.	.	.	.
=88	=88	=88	=88	=88	=88	=88	=88	=88	=88	=88	=88	=88	=88	=88	=88	=88
!LO:TX:a:t=P:problem:mixed beam	!	!	!	!	!	!	!LO:N:vis=00	!	!	!	!LO:TX:a:t=P:problem:brak 9 taktów	!	!LO:N:vis=00	!	!	!
8AA/L	.	.	16a\LL	.	(16cc#\LL	.	0r	.	2ryy	.	2ryy	.	0r	.	2ryy	2ryy
.	.	.	16b\J	.	16dd\J)	.	.	.	.	.	.	.	.	.	.	.
8A\	.	.	8cc#\J	.	8ee\J	.	.	.	.	.	.	.	.	.	.	.
8c#\	.	.	16r	.	16r	.	.	.	.	.	.	.	.	.	.	.
.	.	.	16cc#\LL	.	16aa\LL	.	.	.	.	.	.	.	.	.	.	.
8A\J	.	.	16b\	.	16gg#\	.	.	.	.	.	.	.	.	.	.	.
.	.	.	16cc#\JJ	.	16aa\JJ	.	.	.	.	.	.	.	.	.	.	.
=89	=89	=89	=89	=89	=89	=89	=89	=89	=89	=89	=89	=89	=89	=89	=89	=89
8r	.	.	8dd\L	.	16bb\LL	.	.	.	2ryy	.	2ryy	.	.	.	2ryy	2ryy
.	.	.	.	.	16dd\JJ	.	.	.	.	.	.	.	.	.	.	.
8E\L	.	.	8b\	.	24dd\LL	.	.	.	.	.	.	.	.	.	.	.
.	.	.	.	.	24cc#\	.	.	.	.	.	.	.	.	.	.	.
.	.	.	.	.	24dd\JJ	.	.	.	.	.	.	.	.	.	.	.
!	!	!	!	!	!LO:TX:a:t=P:problem:mixed beam	!	!	!	!	!	!	!	!	!	!	!
!	!	!	!	!	!LO:N:vis=16	!	!	!	!	!	!	!	!	!	!	!
8G#\	.	.	8b\	.	8e/L	.	.	.	.	.	.	.	.	.	.	.
!	!	!	!	!	!LO:N:vis=16	!	!	!	!	!	!	!	!	!	!	!
8E\J	.	.	8b\J	.	8dd\J	.	.	.	.	.	.	.	.	.	.	.
=90	=90	=90	=90	=90	=90	=90	=90	=90	=90	=90	=90	=90	=90	=90	=90	=90
!LO:TX:a:t=P:problem:mixed beam	!	!	!	!	!	!	!	!	!	!	!	!	!	!	!	!
8AA/L	.	.	16a\LL	.	(16cc#\LL	.	.	.	2ryy	.	2ryy	.	.	.	2ryy	2ryy
.	.	.	16b\J	.	16dd\J)	.	.	.	.	.	.	.	.	.	.	.
8A\	.	.	8cc#\J	.	8ee\J	.	.	.	.	.	.	.	.	.	.	.
8c#\	.	.	16r	.	16r	.	.	.	.	.	.	.	.	.	.	.
.	.	.	16cc#\LL	.	16aa\LL	.	.	.	.	.	.	.	.	.	.	.
8A\J	.	.	16b\	.	16gg#\	.	.	.	.	.	.	.	.	.	.	.
.	.	.	16cc#\JJ	.	16aa\JJ	.	.	.	.	.	.	.	.	.	.	.
=91	=91	=91	=91	=91	=91	=91	=91	=91	=91	=91	=91	=91	=91	=91	=91	=91
8r	.	.	8dd\L	.	16bb\LL	.	.	.	2ryy	.	2ryy	.	.	.	2ryy	2ryy
.	.	.	.	.	16dd\JJ	.	.	.	.	.	.	.	.	.	.	.
8E\L	.	.	8b\	.	24dd\LL	.	.	.	.	.	.	.	.	.	.	.
.	.	.	.	.	24cc#\	.	.	.	.	.	.	.	.	.	.	.
.	.	.	.	.	24dd\JJ	.	.	.	.	.	.	.	.	.	.	.
!	!	!	!	!	!LO:TX:a:t=P:problem:mixed beam	!	!	!	!	!	!	!	!	!	!	!
8G#\	.	.	8b\	.	8e/L	.	.	.	.	.	.	.	.	.	.	.
8E\J	.	.	8b\J	.	8dd\J	.	.	.	.	.	.	.	.	.	.	.
=92	=92	=92	=92	=92	=92	=92	=92	=92	=92	=92	=92	=92	=92	=92	=92	=92
!LO:TX:a:t=P:problem:mixed beam	!	!	!	!	!	!	!LO:N:vis=00	!	!	!	!	!	!LO:N:vis=00	!	!	!
8A\L	.	.	16e/LL	.	16cc#\LL	.	0r	.	2ryy	.	2ryy	.	0r	.	2ryy	2ryy
.	.	.	16d/	.	[16b\	.	.	.	.	.	.	.	.	.	.	.
8E\	.	.	16d/	.	16b\]	.	.	.	.	.	.	.	.	.	.	.
.	.	.	16c#/JJ	.	16a\JJ	.	.	.	.	.	.	.	.	.	.	.
8AA/	.	.	8c#/L	.	8a\L	.	.	.	.	.	.	.	.	.	.	.
8AA/J	.	.	16a/L	.	(16cc#\L	.	.	.	.	.	.	.	.	.	.	.
.	.	.	16cc#/JJ	.	16ee\JJ)	.	.	.	.	.	.	.	.	.	.	.
=93	=93	=93	=93	=93	=93	=93	=93	=93	=93	=93	=93	=93	=93	=93	=93	=93
*tremolo	*	*	*	*	*	*	*	*	*	*	*	*	*	*	*	*
8A\L	.	.	8cc#\	.	8aa\	.	.	.	2ryy	.	2ryy	.	.	.	2ryy	2ryy
8A\	.	.	24ee\LL	.	24ccc#\LL	.	.	.	.	.	.	.	.	.	.	.
.	.	.	24dd\	.	24bb\	.	.	.	.	.	.	.	.	.	.	.
.	.	.	24cc#\JJ	.	24aa\JJ	.	.	.	.	.	.	.	.	.	.	.
8A\	.	.	16r	.	16r	.	.	.	.	.	.	.	.	.	.	.
!	!	!	!	!	!LO:LB:g=original	!	!	!	!	!	!	!	!	!	!	!
.	.	.	16cc#\LL	.	16aa\LL	.	.	.	.	.	.	.	.	.	.	.
8A\J	.	.	16a\	.	16cc#\	.	.	.	.	.	.	.	.	.	.	.
.	.	.	16b\JJ	.	16ee\JJ	.	.	.	.	.	.	.	.	.	.	.
=94	=94	=94	=94	=94	=94	=94	=94	=94	=94	=94	=94	=94	=94	=94	=94	=94
8A\L	.	.	8cc#\	.	8aa\	.	.	.	2ryy	.	2ryy	.	.	.	2ryy	2ryy
8A\	.	.	24ee\LL	.	24ccc#\LL	.	.	.	.	.	.	.	.	.	.	.
.	.	.	24dd\	.	24bb\	.	.	.	.	.	.	.	.	.	.	.
.	.	.	24cc#\JJ	.	24aa\JJ	.	.	.	.	.	.	.	.	.	.	.
8A\	.	.	16r	.	16r	.	.	.	.	.	.	.	.	.	.	.
.	.	.	16cc#\LL	.	16aa\LL	.	.	.	.	.	.	.	.	.	.	.
8A\J	.	.	16a\	.	16cc#\	.	.	.	.	.	.	.	.	.	.	.
.	.	.	16b\JJ	.	16ee\JJ	.	.	.	.	.	.	.	.	.	.	.
*Xtremolo	*	*	*	*	*	*	*	*	*	*	*	*	*	*	*	*
=95	=95	=95	=95	=95	=95	=95	=95	=95	=95	=95	=95	=95	=95	=95	=95	=95
!	!	!	!LO:LB:g=original	!	!	!	!	!	!	!	!	!	!	!	!	!
4D\	.	.	8dd\L	.	8ff#\L	.	.	.	2ryy	.	2ryy	.	.	.	2ryy	2ryy
.	.	.	16b\L	.	(16dd\L	.	.	.	.	.	.	.	.	.	.	.
.	.	.	16g#\JJ	.	16b\JJ)	.	.	.	.	.	.	.	.	.	.	.
!LO:TX:a:t=P:problem:mixed beam	!	!	!	!	!	!	!	!	!	!	!	!	!	!	!	!
8E\L	4	.	8c#/L	.	8a/L	.	.	.	.	.	.	.	.	.	.	.
8EE/J	3	.	8B/J	.	8g#/J	.	.	.	.	.	.	.	.	.	.	.
=96	=96	=96	=96	=96	=96	=96	=96	=96	=96	=96	=96	=96	=96	=96	=96	=96
!	!	!	!	!	!LO:TX:a:t=P:problem:mixed beam	!	!	!	!	!	!	!	!	!	!	!
4A\	.	.	8c#/L	.	8a/L	.	2r	.	2ryy	.	2ryy	.	2r	.	2ryy	2ryy
.	.	.	8e/J	.	16ee\L	.	.	.	.	.	.	.	.	.	.	.
.	.	.	.	.	16cc#\JJ	.	.	.	.	.	.	.	.	.	.	.
!LO:TX:b:t=Kyrie\n Da Capo.	!	!	!LO:TX:b:t=Kyrie Da Capo.	!	!LO:TX:b:i:t=Da Capo Kyrye	!	!LO:TX:b:t=Da Capo Kyrie	!	!	!	!	!	!LO:TX:b:t=Da Capo. Kyrie	!	!	!
4AA/	.	.	4a/	.	4a/	.	.	.	.	.	.	.	.	.	.	.
=||	=||	=||	=||	=||	=||	=||	=||	=||	=||	=||	=||	=||	=||	=||	=||	=||
*-	*-	*-	*-	*-	*-	*-	*-	*-	*-	*-	*-	*-	*-	*-	*-	*-
!!!system-decoration: [g1][g2][g3]s9
!!!RDF**kern: > = above
!!!RDF**kern: < = below
!!!RDF**dynam: f = "for."
!!!RDF**dynam: p = "pia"
!!!ENC: Marta Lawrence
!!!END: 2020-06-08
!!!ENC: Anastazja Marusiak
!!!END: 2020-05-29
